MODULE Module1 
    CONST robtarget p1:= [[1444.9610877415814, -2.052693693758812, 990.500033578516], [0, 0, 1, 0], [0, 0, 0, 0], [9E9, 9E9, 9E9, 9E9, 9E9, 9E9]]; 
    CONST robtarget p2:= [[1444.945206455642, -1.7776709890173947, 990.500033578516], [0, 0, 1, 0], [0, 0, 0, 0], [9E9, 9E9, 9E9, 9E9, 9E9, 9E9]]; 
    CONST robtarget p3:= [[1444.9374433350133, -1.5121228220367158, 990.500033578516], [0, 0, 1, 0], [0, 0, 0, 0], [9E9, 9E9, 9E9, 9E9, 9E9, 9E9]]; 
    CONST robtarget p4:= [[1444.9340372576173, -1.3593831369519194, 990.500033578516], [0, 0, 1, 0], [0, 0, 0, 0], [9E9, 9E9, 9E9, 9E9, 9E9, 9E9]]; 
    CONST robtarget p5:= [[1444.9145827196137, -0.8739598704853933, 990.500033578516], [0, 0, 1, 0], [0, 0, 0, 0], [9E9, 9E9, 9E9, 9E9, 9E9, 9E9]]; 
    CONST robtarget p6:= [[1444.9055099295656, -0.6150133497989998, 990.500033578516], [0, 0, 1, 0], [0, 0, 0, 0], [9E9, 9E9, 9E9, 9E9, 9E9, 9E9]]; 
    CONST robtarget p7:= [[1444.8960859270678, -0.43938700680597265, 990.500033578516], [0, 0, 1, 0], [0, 0, 0, 0], [9E9, 9E9, 9E9, 9E9, 9E9, 9E9]]; 
    CONST robtarget p8:= [[1444.8895558337256, 0.05597997334204763, 990.500033578516], [0, 0, 1, 0], [0, 0, 0, 0], [9E9, 9E9, 9E9, 9E9, 9E9, 9E9]]; 
    CONST robtarget p9:= [[1444.8860006821747, 0.17627013507157585, 990.500033578516], [0, 0, 1, 0], [0, 0, 0, 0], [9E9, 9E9, 9E9, 9E9, 9E9, 9E9]]; 
    CONST robtarget p10:= [[1444.9117077814992, 0.5418169133946407, 990.500033578516], [0, 0, 1, 0], [0, 0, 0, 0], [9E9, 9E9, 9E9, 9E9, 9E9, 9E9]]; 
    CONST robtarget p11:= [[1444.9152091831315, 0.9414501793343959, 990.500033578516], [0, 0, 1, 0], [0, 0, 0, 0], [9E9, 9E9, 9E9, 9E9, 9E9, 9E9]]; 
    CONST robtarget p12:= [[1444.9331520270605, 1.361566326065514, 990.500033578516], [0, 0, 1, 0], [0, 0, 0, 0], [9E9, 9E9, 9E9, 9E9, 9E9, 9E9]]; 
    CONST robtarget p13:= [[1444.9425172386523, 1.652987859270496, 990.500033578516], [0, 0, 1, 0], [0, 0, 0, 0], [9E9, 9E9, 9E9, 9E9, 9E9, 9E9]]; 
    CONST robtarget p14:= [[1444.954782762273, 1.9376481443022726, 990.500033578516], [0, 0, 1, 0], [0, 0, 0, 0], [9E9, 9E9, 9E9, 9E9, 9E9, 9E9]]; 
    CONST robtarget p15:= [[1444.9683868209543, 2.4034559454106557, 990.500033578516], [0, 0, 1, 0], [0, 0, 0, 0], [9E9, 9E9, 9E9, 9E9, 9E9, 9E9]]; 
    CONST robtarget p16:= [[1444.987328780572, 2.850202328224057, 990.500033578516], [0, 0, 1, 0], [0, 0, 0, 0], [9E9, 9E9, 9E9, 9E9, 9E9, 9E9]]; 
    CONST robtarget p17:= [[1444.9981934519303, 3.2327012654681653, 990.500033578516], [0, 0, 1, 0], [0, 0, 0, 0], [9E9, 9E9, 9E9, 9E9, 9E9, 9E9]]; 
    CONST robtarget p18:= [[1445.0178390313276, 3.7513323584367555, 990.500033578516], [0, 0, 1, 0], [0, 0, 0, 0], [9E9, 9E9, 9E9, 9E9, 9E9, 9E9]]; 
    CONST robtarget p19:= [[1445.0185381173762, 3.768368928325174, 990.500033578516], [0, 0, 1, 0], [0, 0, 0, 0], [9E9, 9E9, 9E9, 9E9, 9E9, 9E9]]; 
    CONST robtarget p20:= [[1445.0272895751473, 3.888330316036317, 990.500033578516], [0, 0, 1, 0], [0, 0, 0, 0], [9E9, 9E9, 9E9, 9E9, 9E9, 9E9]]; 
    CONST robtarget p21:= [[1445.0331708152837, 3.997050585529138, 990.500033578516], [0, 0, 1, 0], [0, 0, 0, 0], [9E9, 9E9, 9E9, 9E9, 9E9, 9E9]]; 
    CONST robtarget p22:= [[1445.0572765112456, 4.284400696558691, 990.500033578516], [0, 0, 1, 0], [0, 0, 0, 0], [9E9, 9E9, 9E9, 9E9, 9E9, 9E9]]; 
    CONST robtarget p23:= [[1445.0700747987132, 4.385721809230205, 990.500033578516], [0, 0, 1, 0], [0, 0, 0, 0], [9E9, 9E9, 9E9, 9E9, 9E9, 9E9]]; 
    CONST robtarget p24:= [[1445.0824597317112, 4.488836845164272, 990.500033578516], [0, 0, 1, 0], [0, 0, 0, 0], [9E9, 9E9, 9E9, 9E9, 9E9, 9E9]]; 
    CONST robtarget p25:= [[1445.1199788201882, 4.870570922958379, 990.500033578516], [0, 0, 1, 0], [0, 0, 0, 0], [9E9, 9E9, 9E9, 9E9, 9E9, 9E9]]; 
    CONST robtarget p26:= [[1445.1464462609244, 5.063695284859946, 990.500033578516], [0, 0, 1, 0], [0, 0, 0, 0], [9E9, 9E9, 9E9, 9E9, 9E9, 9E9]]; 
    CONST robtarget p27:= [[1445.176230614575, 5.381803680924236, 990.500033578516], [0, 0, 1, 0], [0, 0, 0, 0], [9E9, 9E9, 9E9, 9E9, 9E9, 9E9]]; 
    CONST robtarget p28:= [[1445.2056955395549, 5.637966885907986, 990.500033578516], [0, 0, 1, 0], [0, 0, 0, 0], [9E9, 9E9, 9E9, 9E9, 9E9, 9E9]]; 
    CONST robtarget p29:= [[1445.2404210195139, 5.885473077219132, 990.500033578516], [0, 0, 1, 0], [0, 0, 0, 0], [9E9, 9E9, 9E9, 9E9, 9E9, 9E9]]; 
    CONST robtarget p30:= [[1445.2642399356785, 6.110722183618577, 990.500033578516], [0, 0, 1, 0], [0, 0, 0, 0], [9E9, 9E9, 9E9, 9E9, 9E9, 9E9]]; 
    CONST robtarget p31:= [[1445.2854774021635, 6.325378338596465, 990.500033578516], [0, 0, 1, 0], [0, 0, 0, 0], [9E9, 9E9, 9E9, 9E9, 9E9, 9E9]]; 
    CONST robtarget p32:= [[1445.2964606449439, 6.476901593315361, 990.500033578516], [0, 0, 1, 0], [0, 0, 0, 0], [9E9, 9E9, 9E9, 9E9, 9E9, 9E9]]; 
    CONST robtarget p33:= [[1445.3278874285302, 6.678008222298132, 990.500033578516], [0, 0, 1, 0], [0, 0, 0, 0], [9E9, 9E9, 9E9, 9E9, 9E9, 9E9]]; 
    CONST robtarget p34:= [[1445.3543971860167, 6.877929450414513, 990.500033578516], [0, 0, 1, 0], [0, 0, 0, 0], [9E9, 9E9, 9E9, 9E9, 9E9, 9E9]]; 
    CONST robtarget p35:= [[1445.4038621990533, 7.3577399345069665, 990.500033578516], [0, 0, 1, 0], [0, 0, 0, 0], [9E9, 9E9, 9E9, 9E9, 9E9, 9E9]]; 
    CONST robtarget p36:= [[1445.4151917069146, 7.500225533685622, 990.500033578516], [0, 0, 1, 0], [0, 0, 0, 0], [9E9, 9E9, 9E9, 9E9, 9E9, 9E9]]; 
    CONST robtarget p37:= [[1445.4494790307133, 7.847301797570225, 990.500033578516], [0, 0, 1, 0], [0, 0, 0, 0], [9E9, 9E9, 9E9, 9E9, 9E9, 9E9]]; 
    CONST robtarget p38:= [[1445.4706836354753, 8.023834809036984, 990.500033578516], [0, 0, 1, 0], [0, 0, 0, 0], [9E9, 9E9, 9E9, 9E9, 9E9, 9E9]]; 
    CONST robtarget p39:= [[1445.5874253542554, 8.615682066552182, 990.500033578516], [0, 0, 1, 0], [0, 0, 0, 0], [9E9, 9E9, 9E9, 9E9, 9E9, 9E9]]; 
    CONST robtarget p40:= [[1445.6354189204865, 8.886498215977795, 990.500033578516], [0, 0, 1, 0], [0, 0, 0, 0], [9E9, 9E9, 9E9, 9E9, 9E9, 9E9]]; 
    CONST robtarget p41:= [[1445.6568159556257, 9.041665001456806, 990.500033578516], [0, 0, 1, 0], [0, 0, 0, 0], [9E9, 9E9, 9E9, 9E9, 9E9, 9E9]]; 
    CONST robtarget p42:= [[1445.6907076473003, 9.213753287389764, 990.500033578516], [0, 0, 1, 0], [0, 0, 0, 0], [9E9, 9E9, 9E9, 9E9, 9E9, 9E9]]; 
    CONST robtarget p43:= [[1445.7626497040844, 9.576320521293582, 990.500033578516], [0, 0, 1, 0], [0, 0, 0, 0], [9E9, 9E9, 9E9, 9E9, 9E9, 9E9]]; 
    CONST robtarget p44:= [[1445.7864033504193, 9.702024247936677, 990.500033578516], [0, 0, 1, 0], [0, 0, 0, 0], [9E9, 9E9, 9E9, 9E9, 9E9, 9E9]]; 
    CONST robtarget p45:= [[1445.8329369568874, 10.00383362158793, 990.500033578516], [0, 0, 1, 0], [0, 0, 0, 0], [9E9, 9E9, 9E9, 9E9, 9E9, 9E9]]; 
    CONST robtarget p46:= [[1445.8973490481435, 10.30405594699917, 990.500033578516], [0, 0, 1, 0], [0, 0, 0, 0], [9E9, 9E9, 9E9, 9E9, 9E9, 9E9]]; 
    CONST robtarget p47:= [[1445.9351821428843, 10.506058423675626, 990.500033578516], [0, 0, 1, 0], [0, 0, 0, 0], [9E9, 9E9, 9E9, 9E9, 9E9, 9E9]]; 
    CONST robtarget p48:= [[1445.986814935353, 10.812344068802417, 990.500033578516], [0, 0, 1, 0], [0, 0, 0, 0], [9E9, 9E9, 9E9, 9E9, 9E9, 9E9]]; 
    CONST robtarget p49:= [[1445.9940595337152, 10.86549771177043, 990.500033578516], [0, 0, 1, 0], [0, 0, 0, 0], [9E9, 9E9, 9E9, 9E9, 9E9, 9E9]]; 
    CONST robtarget p50:= [[1446.0049795970076, 10.935361279236417, 990.500033578516], [0, 0, 1, 0], [0, 0, 0, 0], [9E9, 9E9, 9E9, 9E9, 9E9, 9E9]]; 
    CONST robtarget p51:= [[1446.0233894768035, 11.031970477394879, 990.500033578516], [0, 0, 1, 0], [0, 0, 0, 0], [9E9, 9E9, 9E9, 9E9, 9E9, 9E9]]; 
    CONST robtarget p52:= [[1446.1380268079133, 11.613550793380597, 990.500033578516], [0, 0, 1, 0], [0, 0, 0, 0], [9E9, 9E9, 9E9, 9E9, 9E9, 9E9]]; 
    CONST robtarget p53:= [[1446.1480397526152, 11.683401754659243, 990.500033578516], [0, 0, 1, 0], [0, 0, 0, 0], [9E9, 9E9, 9E9, 9E9, 9E9, 9E9]]; 
    CONST robtarget p54:= [[1446.1957398725117, 11.924351890464806, 990.500033578516], [0, 0, 1, 0], [0, 0, 0, 0], [9E9, 9E9, 9E9, 9E9, 9E9, 9E9]]; 
    CONST robtarget p55:= [[1446.2344538642412, 12.104977578541238, 990.500033578516], [0, 0, 1, 0], [0, 0, 0, 0], [9E9, 9E9, 9E9, 9E9, 9E9, 9E9]]; 
    CONST robtarget p56:= [[1446.2603932106626, 12.192637547400679, 990.500033578516], [0, 0, 1, 0], [0, 0, 0, 0], [9E9, 9E9, 9E9, 9E9, 9E9, 9E9]]; 
    CONST robtarget p57:= [[1446.3030845240867, 12.346863829252257, 990.500033578516], [0, 0, 1, 0], [0, 0, 0, 0], [9E9, 9E9, 9E9, 9E9, 9E9, 9E9]]; 
    CONST robtarget p58:= [[1446.359992019197, 12.569228050732477, 990.500033578516], [0, 0, 1, 0], [0, 0, 0, 0], [9E9, 9E9, 9E9, 9E9, 9E9, 9E9]]; 
    CONST robtarget p59:= [[1446.3828359153292, 12.654305778540888, 990.500033578516], [0, 0, 1, 0], [0, 0, 0, 0], [9E9, 9E9, 9E9, 9E9, 9E9, 9E9]]; 
    CONST robtarget p60:= [[1446.4635518029893, 12.982578527561273, 990.500033578516], [0, 0, 1, 0], [0, 0, 0, 0], [9E9, 9E9, 9E9, 9E9, 9E9, 9E9]]; 
    CONST robtarget p61:= [[1446.4947456060418, 13.081927519311918, 990.500033578516], [0, 0, 1, 0], [0, 0, 0, 0], [9E9, 9E9, 9E9, 9E9, 9E9, 9E9]]; 
    CONST robtarget p62:= [[1446.5527901367232, 13.27939948532233, 990.500033578516], [0, 0, 1, 0], [0, 0, 0, 0], [9E9, 9E9, 9E9, 9E9, 9E9, 9E9]]; 
    CONST robtarget p63:= [[1446.6284414489237, 13.557116518466302, 990.500033578516], [0, 0, 1, 0], [0, 0, 0, 0], [9E9, 9E9, 9E9, 9E9, 9E9, 9E9]]; 
    CONST robtarget p64:= [[1446.6929737421074, 13.834812550802823, 990.500033578516], [0, 0, 1, 0], [0, 0, 0, 0], [9E9, 9E9, 9E9, 9E9, 9E9, 9E9]]; 
    CONST robtarget p65:= [[1446.7430387053448, 14.064541321342844, 990.500033578516], [0, 0, 1, 0], [0, 0, 0, 0], [9E9, 9E9, 9E9, 9E9, 9E9, 9E9]]; 
    CONST robtarget p66:= [[1446.8454907766895, 14.418858624599935, 990.500033578516], [0, 0, 1, 0], [0, 0, 0, 0], [9E9, 9E9, 9E9, 9E9, 9E9, 9E9]]; 
    CONST robtarget p67:= [[1446.9030822041066, 14.6702211859579, 990.500033578516], [0, 0, 1, 0], [0, 0, 0, 0], [9E9, 9E9, 9E9, 9E9, 9E9, 9E9]]; 
    CONST robtarget p68:= [[1446.966071383525, 14.913989713488576, 990.500033578516], [0, 0, 1, 0], [0, 0, 0, 0], [9E9, 9E9, 9E9, 9E9, 9E9, 9E9]]; 
    CONST robtarget p69:= [[1447.1404124042501, 15.552666035674065, 990.500033578516], [0, 0, 1, 0], [0, 0, 0, 0], [9E9, 9E9, 9E9, 9E9, 9E9, 9E9]]; 
    CONST robtarget p70:= [[1447.2389506045006, 15.913810505053391, 990.500033578516], [0, 0, 1, 0], [0, 0, 0, 0], [9E9, 9E9, 9E9, 9E9, 9E9, 9E9]]; 
    CONST robtarget p71:= [[1447.334814663618, 16.195645166489527, 990.500033578516], [0, 0, 1, 0], [0, 0, 0, 0], [9E9, 9E9, 9E9, 9E9, 9E9, 9E9]]; 
    CONST robtarget p72:= [[1447.3883284732121, 16.35230552274848, 990.500033578516], [0, 0, 1, 0], [0, 0, 0, 0], [9E9, 9E9, 9E9, 9E9, 9E9, 9E9]]; 
    CONST robtarget p73:= [[1447.440117252397, 16.511619483951193, 990.500033578516], [0, 0, 1, 0], [0, 0, 0, 0], [9E9, 9E9, 9E9, 9E9, 9E9, 9E9]]; 
    CONST robtarget p74:= [[1447.5470920338432, 16.820110441802512, 990.500033578516], [0, 0, 1, 0], [0, 0, 0, 0], [9E9, 9E9, 9E9, 9E9, 9E9, 9E9]]; 
    CONST robtarget p75:= [[1447.6006817901298, 16.972614870302976, 990.500033578516], [0, 0, 1, 0], [0, 0, 0, 0], [9E9, 9E9, 9E9, 9E9, 9E9, 9E9]]; 
    CONST robtarget p76:= [[1447.7486976846062, 17.414898929869224, 990.500033578516], [0, 0, 1, 0], [0, 0, 0, 0], [9E9, 9E9, 9E9, 9E9, 9E9, 9E9]]; 
    CONST robtarget p77:= [[1447.7748192669192, 17.494345212102573, 990.500033578516], [0, 0, 1, 0], [0, 0, 0, 0], [9E9, 9E9, 9E9, 9E9, 9E9, 9E9]]; 
    CONST robtarget p78:= [[1447.8489085430265, 17.710461453217135, 990.500033578516], [0, 0, 1, 0], [0, 0, 0, 0], [9E9, 9E9, 9E9, 9E9, 9E9, 9E9]]; 
    CONST robtarget p79:= [[1447.9103288860883, 17.908560163658336, 990.500033578516], [0, 0, 1, 0], [0, 0, 0, 0], [9E9, 9E9, 9E9, 9E9, 9E9, 9E9]]; 
    CONST robtarget p80:= [[1448.0275351212845, 18.23317895837478, 990.500033578516], [0, 0, 1, 0], [0, 0, 0, 0], [9E9, 9E9, 9E9, 9E9, 9E9, 9E9]]; 
    CONST robtarget p81:= [[1448.1025660958198, 18.47449964631322, 990.500033578516], [0, 0, 1, 0], [0, 0, 0, 0], [9E9, 9E9, 9E9, 9E9, 9E9, 9E9]]; 
    CONST robtarget p82:= [[1448.2932033391673, 19.003226244662713, 990.500033578516], [0, 0, 1, 0], [0, 0, 0, 0], [9E9, 9E9, 9E9, 9E9, 9E9, 9E9]]; 
    CONST robtarget p83:= [[1448.376640503885, 19.26885053281906, 990.500033578516], [0, 0, 1, 0], [0, 0, 0, 0], [9E9, 9E9, 9E9, 9E9, 9E9, 9E9]]; 
    CONST robtarget p84:= [[1448.4765380210824, 19.53303931505461, 990.500033578516], [0, 0, 1, 0], [0, 0, 0, 0], [9E9, 9E9, 9E9, 9E9, 9E9, 9E9]]; 
    CONST robtarget p85:= [[1448.5080070228214, 19.62518597128519, 990.500033578516], [0, 0, 1, 0], [0, 0, 0, 0], [9E9, 9E9, 9E9, 9E9, 9E9, 9E9]]; 
    CONST robtarget p86:= [[1448.57056441319, 19.78533429999304, 990.500033578516], [0, 0, 1, 0], [0, 0, 0, 0], [9E9, 9E9, 9E9, 9E9, 9E9, 9E9]]; 
    CONST robtarget p87:= [[1448.713132783335, 20.14970038229238, 990.500033578516], [0, 0, 1, 0], [0, 0, 0, 0], [9E9, 9E9, 9E9, 9E9, 9E9, 9E9]]; 
    CONST robtarget p88:= [[1448.7894654956688, 20.3300286032553, 990.500033578516], [0, 0, 1, 0], [0, 0, 0, 0], [9E9, 9E9, 9E9, 9E9, 9E9, 9E9]]; 
    CONST robtarget p89:= [[1448.9023854728432, 20.566185930505725, 990.500033578516], [0, 0, 1, 0], [0, 0, 0, 0], [9E9, 9E9, 9E9, 9E9, 9E9, 9E9]]; 
    CONST robtarget p90:= [[1449.0461138048995, 20.9214908603729, 990.500033578516], [0, 0, 1, 0], [0, 0, 0, 0], [9E9, 9E9, 9E9, 9E9, 9E9, 9E9]]; 
    CONST robtarget p91:= [[1449.1016250335658, 21.056516403213905, 990.500033578516], [0, 0, 1, 0], [0, 0, 0, 0], [9E9, 9E9, 9E9, 9E9, 9E9, 9E9]]; 
    CONST robtarget p92:= [[1449.168955020053, 21.221592951596605, 990.500033578516], [0, 0, 1, 0], [0, 0, 0, 0], [9E9, 9E9, 9E9, 9E9, 9E9, 9E9]]; 
    CONST robtarget p93:= [[1449.3251782764626, 21.541160627867228, 990.500033578516], [0, 0, 1, 0], [0, 0, 0, 0], [9E9, 9E9, 9E9, 9E9, 9E9, 9E9]]; 
    CONST robtarget p94:= [[1449.4759446633107, 21.904267107012217, 990.500033578516], [0, 0, 1, 0], [0, 0, 0, 0], [9E9, 9E9, 9E9, 9E9, 9E9, 9E9]]; 
    CONST robtarget p95:= [[1449.5466885840688, 22.07576391578141, 990.500033578516], [0, 0, 1, 0], [0, 0, 0, 0], [9E9, 9E9, 9E9, 9E9, 9E9, 9E9]]; 
    CONST robtarget p96:= [[1449.6181245116838, 22.266619391943436, 990.500033578516], [0, 0, 1, 0], [0, 0, 0, 0], [9E9, 9E9, 9E9, 9E9, 9E9, 9E9]]; 
    CONST robtarget p97:= [[1449.6823486466724, 22.43085100235716, 990.500033578516], [0, 0, 1, 0], [0, 0, 0, 0], [9E9, 9E9, 9E9, 9E9, 9E9, 9E9]]; 
    CONST robtarget p98:= [[1449.7896366908915, 22.656343899177543, 990.500033578516], [0, 0, 1, 0], [0, 0, 0, 0], [9E9, 9E9, 9E9, 9E9, 9E9, 9E9]]; 
    CONST robtarget p99:= [[1449.9069205933663, 22.921824591759687, 990.500033578516], [0, 0, 1, 0], [0, 0, 0, 0], [9E9, 9E9, 9E9, 9E9, 9E9, 9E9]]; 
    CONST robtarget p100:= [[1450.0136145708047, 23.203383244096983, 990.500033578516], [0, 0, 1, 0], [0, 0, 0, 0], [9E9, 9E9, 9E9, 9E9, 9E9, 9E9]]; 
    CONST robtarget p101:= [[1450.0231518930598, 23.22481982770431, 990.500033578516], [0, 0, 1, 0], [0, 0, 0, 0], [9E9, 9E9, 9E9, 9E9, 9E9, 9E9]]; 
    CONST robtarget p102:= [[1450.094238480724, 23.37475271177732, 990.500033578516], [0, 0, 1, 0], [0, 0, 0, 0], [9E9, 9E9, 9E9, 9E9, 9E9, 9E9]]; 
    CONST robtarget p103:= [[1450.1322972745072, 23.460556728256933, 990.500033578516], [0, 0, 1, 0], [0, 0, 0, 0], [9E9, 9E9, 9E9, 9E9, 9E9, 9E9]]; 
    CONST robtarget p104:= [[1450.1736034507103, 23.532282459906654, 990.500033578516], [0, 0, 1, 0], [0, 0, 0, 0], [9E9, 9E9, 9E9, 9E9, 9E9, 9E9]]; 
    CONST robtarget p105:= [[1450.3543243814142, 23.87883707046926, 990.500033578516], [0, 0, 1, 0], [0, 0, 0, 0], [9E9, 9E9, 9E9, 9E9, 9E9, 9E9]]; 
    CONST robtarget p106:= [[1450.4265608711487, 24.03822502979726, 990.500033578516], [0, 0, 1, 0], [0, 0, 0, 0], [9E9, 9E9, 9E9, 9E9, 9E9, 9E9]]; 
    CONST robtarget p107:= [[1450.5835172699383, 24.346607010129574, 990.500033578516], [0, 0, 1, 0], [0, 0, 0, 0], [9E9, 9E9, 9E9, 9E9, 9E9, 9E9]]; 
    CONST robtarget p108:= [[1450.7436747651077, 24.66255903276857, 990.500033578516], [0, 0, 1, 0], [0, 0, 0, 0], [9E9, 9E9, 9E9, 9E9, 9E9, 9E9]]; 
    CONST robtarget p109:= [[1450.7872483608096, 24.74421055378056, 990.500033578516], [0, 0, 1, 0], [0, 0, 0, 0], [9E9, 9E9, 9E9, 9E9, 9E9, 9E9]]; 
    CONST robtarget p110:= [[1450.915298960116, 24.990844495053167, 990.500033578516], [0, 0, 1, 0], [0, 0, 0, 0], [9E9, 9E9, 9E9, 9E9, 9E9, 9E9]]; 
    CONST robtarget p111:= [[1451.0488805657346, 25.242501551277797, 990.500033578516], [0, 0, 1, 0], [0, 0, 0, 0], [9E9, 9E9, 9E9, 9E9, 9E9, 9E9]]; 
    CONST robtarget p112:= [[1451.2196960923582, 25.567983439526515, 990.500033578516], [0, 0, 1, 0], [0, 0, 0, 0], [9E9, 9E9, 9E9, 9E9, 9E9, 9E9]]; 
    CONST robtarget p113:= [[1451.2730160049841, 25.677820981715257, 990.500033578516], [0, 0, 1, 0], [0, 0, 0, 0], [9E9, 9E9, 9E9, 9E9, 9E9, 9E9]]; 
    CONST robtarget p114:= [[1451.3906764499695, 25.90283626632352, 990.500033578516], [0, 0, 1, 0], [0, 0, 0, 0], [9E9, 9E9, 9E9, 9E9, 9E9, 9E9]]; 
    CONST robtarget p115:= [[1451.6052984020525, 26.328719902920568, 990.500033578516], [0, 0, 1, 0], [0, 0, 0, 0], [9E9, 9E9, 9E9, 9E9, 9E9, 9E9]]; 
    CONST robtarget p116:= [[1451.6668806179757, 26.454363250518185, 990.500033578516], [0, 0, 1, 0], [0, 0, 0, 0], [9E9, 9E9, 9E9, 9E9, 9E9, 9E9]]; 
    CONST robtarget p117:= [[1451.7873023808684, 26.680167769566182, 990.500033578516], [0, 0, 1, 0], [0, 0, 0, 0], [9E9, 9E9, 9E9, 9E9, 9E9, 9E9]]; 
    CONST robtarget p118:= [[1451.839497665886, 26.787450168426915, 990.500033578516], [0, 0, 1, 0], [0, 0, 0, 0], [9E9, 9E9, 9E9, 9E9, 9E9, 9E9]]; 
    CONST robtarget p119:= [[1451.9171456935135, 26.93062731063243, 990.500033578516], [0, 0, 1, 0], [0, 0, 0, 0], [9E9, 9E9, 9E9, 9E9, 9E9, 9E9]]; 
    CONST robtarget p120:= [[1452.0101445575679, 27.100268114171215, 990.500033578516], [0, 0, 1, 0], [0, 0, 0, 0], [9E9, 9E9, 9E9, 9E9, 9E9, 9E9]]; 
    CONST robtarget p121:= [[1452.1553635622297, 27.333206057212465, 990.500033578516], [0, 0, 1, 0], [0, 0, 0, 0], [9E9, 9E9, 9E9, 9E9, 9E9, 9E9]]; 
    CONST robtarget p122:= [[1452.3064392780211, 27.570582702990052, 990.500033578516], [0, 0, 1, 0], [0, 0, 0, 0], [9E9, 9E9, 9E9, 9E9, 9E9, 9E9]]; 
    CONST robtarget p123:= [[1452.4428334167694, 27.805374579546793, 990.500033578516], [0, 0, 1, 0], [0, 0, 0, 0], [9E9, 9E9, 9E9, 9E9, 9E9, 9E9]]; 
    CONST robtarget p124:= [[1452.5553483958433, 27.99014458042322, 990.500033578516], [0, 0, 1, 0], [0, 0, 0, 0], [9E9, 9E9, 9E9, 9E9, 9E9, 9E9]]; 
    CONST robtarget p125:= [[1452.62224586415, 28.10350622338386, 990.500033578516], [0, 0, 1, 0], [0, 0, 0, 0], [9E9, 9E9, 9E9, 9E9, 9E9, 9E9]]; 
    CONST robtarget p126:= [[1452.8572231264527, 28.477251232609262, 990.500033578516], [0, 0, 1, 0], [0, 0, 0, 0], [9E9, 9E9, 9E9, 9E9, 9E9, 9E9]]; 
    CONST robtarget p127:= [[1453.0875855175007, 28.845504642850955, 990.500033578516], [0, 0, 1, 0], [0, 0, 0, 0], [9E9, 9E9, 9E9, 9E9, 9E9, 9E9]]; 
    CONST robtarget p128:= [[1453.2927432630736, 29.187951752037648, 990.500033578516], [0, 0, 1, 0], [0, 0, 0, 0], [9E9, 9E9, 9E9, 9E9, 9E9, 9E9]]; 
    CONST robtarget p129:= [[1453.420708375818, 29.410736328393455, 990.500033578516], [0, 0, 1, 0], [0, 0, 0, 0], [9E9, 9E9, 9E9, 9E9, 9E9, 9E9]]; 
    CONST robtarget p130:= [[1453.6898076281318, 29.827033526708902, 990.500033578516], [0, 0, 1, 0], [0, 0, 0, 0], [9E9, 9E9, 9E9, 9E9, 9E9, 9E9]]; 
    CONST robtarget p131:= [[1453.87786229352, 30.134778051126446, 990.500033578516], [0, 0, 1, 0], [0, 0, 0, 0], [9E9, 9E9, 9E9, 9E9, 9E9, 9E9]]; 
    CONST robtarget p132:= [[1454.093057125768, 30.49151815608093, 990.500033578516], [0, 0, 1, 0], [0, 0, 0, 0], [9E9, 9E9, 9E9, 9E9, 9E9, 9E9]]; 
    CONST robtarget p133:= [[1454.2158522766924, 30.66995159984954, 990.500033578516], [0, 0, 1, 0], [0, 0, 0, 0], [9E9, 9E9, 9E9, 9E9, 9E9, 9E9]]; 
    CONST robtarget p134:= [[1454.4442531382401, 30.988092136935762, 990.500033578516], [0, 0, 1, 0], [0, 0, 0, 0], [9E9, 9E9, 9E9, 9E9, 9E9, 9E9]]; 
    CONST robtarget p135:= [[1454.6607835430175, 31.288937540227934, 990.500033578516], [0, 0, 1, 0], [0, 0, 0, 0], [9E9, 9E9, 9E9, 9E9, 9E9, 9E9]]; 
    CONST robtarget p136:= [[1454.9347202626227, 31.648720143435625, 990.500033578516], [0, 0, 1, 0], [0, 0, 0, 0], [9E9, 9E9, 9E9, 9E9, 9E9, 9E9]]; 
    CONST robtarget p137:= [[1455.0388474183146, 31.797407875946803, 990.500033578516], [0, 0, 1, 0], [0, 0, 0, 0], [9E9, 9E9, 9E9, 9E9, 9E9, 9E9]]; 
    CONST robtarget p138:= [[1455.118444347776, 31.919072025707905, 990.500033578516], [0, 0, 1, 0], [0, 0, 0, 0], [9E9, 9E9, 9E9, 9E9, 9E9, 9E9]]; 
    CONST robtarget p139:= [[1455.2581116500837, 32.1229141264654, 990.500033578516], [0, 0, 1, 0], [0, 0, 0, 0], [9E9, 9E9, 9E9, 9E9, 9E9, 9E9]]; 
    CONST robtarget p140:= [[1455.2877767709006, 32.16605558113845, 990.500033578516], [0, 0, 1, 0], [0, 0, 0, 0], [9E9, 9E9, 9E9, 9E9, 9E9, 9E9]]; 
    CONST robtarget p141:= [[1455.4452515691214, 32.387874817703874, 990.500033578516], [0, 0, 1, 0], [0, 0, 0, 0], [9E9, 9E9, 9E9, 9E9, 9E9, 9E9]]; 
    CONST robtarget p142:= [[1455.6107917359693, 32.61267417930934, 990.500033578516], [0, 0, 1, 0], [0, 0, 0, 0], [9E9, 9E9, 9E9, 9E9, 9E9, 9E9]]; 
    CONST robtarget p143:= [[1455.824529833431, 32.919266283534654, 990.500033578516], [0, 0, 1, 0], [0, 0, 0, 0], [9E9, 9E9, 9E9, 9E9, 9E9, 9E9]]; 
    CONST robtarget p144:= [[1456.0292387025509, 33.20061329104499, 990.500033578516], [0, 0, 1, 0], [0, 0, 0, 0], [9E9, 9E9, 9E9, 9E9, 9E9, 9E9]]; 
    CONST robtarget p145:= [[1456.2292074598636, 33.46264518283594, 990.500033578516], [0, 0, 1, 0], [0, 0, 0, 0], [9E9, 9E9, 9E9, 9E9, 9E9, 9E9]]; 
    CONST robtarget p146:= [[1456.491393333942, 33.824844595608596, 990.500033578516], [0, 0, 1, 0], [0, 0, 0, 0], [9E9, 9E9, 9E9, 9E9, 9E9, 9E9]]; 
    CONST robtarget p147:= [[1456.8660235955329, 34.26638866081143, 990.500033578516], [0, 0, 1, 0], [0, 0, 0, 0], [9E9, 9E9, 9E9, 9E9, 9E9, 9E9]]; 
    CONST robtarget p148:= [[1457.0749859014877, 34.5241267925322, 990.500033578516], [0, 0, 1, 0], [0, 0, 0, 0], [9E9, 9E9, 9E9, 9E9, 9E9, 9E9]]; 
    CONST robtarget p149:= [[1457.2828987481953, 34.76696964208486, 990.500033578516], [0, 0, 1, 0], [0, 0, 0, 0], [9E9, 9E9, 9E9, 9E9, 9E9, 9E9]]; 
    CONST robtarget p150:= [[1457.5492077928457, 35.08973435149446, 990.500033578516], [0, 0, 1, 0], [0, 0, 0, 0], [9E9, 9E9, 9E9, 9E9, 9E9, 9E9]]; 
    CONST robtarget p151:= [[1457.66431050073, 35.23771259487309, 990.500033578516], [0, 0, 1, 0], [0, 0, 0, 0], [9E9, 9E9, 9E9, 9E9, 9E9, 9E9]]; 
    CONST robtarget p152:= [[1457.7120180776699, 35.29302473732436, 990.500033578516], [0, 0, 1, 0], [0, 0, 0, 0], [9E9, 9E9, 9E9, 9E9, 9E9, 9E9]]; 
    CONST robtarget p153:= [[1457.8284458954984, 35.42705809004963, 990.500033578516], [0, 0, 1, 0], [0, 0, 0, 0], [9E9, 9E9, 9E9, 9E9, 9E9, 9E9]]; 
    CONST robtarget p154:= [[1458.0557634714798, 35.70341185864669, 990.500033578516], [0, 0, 1, 0], [0, 0, 0, 0], [9E9, 9E9, 9E9, 9E9, 9E9, 9E9]]; 
    CONST robtarget p155:= [[1458.6002988271707, 36.36301000482186, 990.500033578516], [0, 0, 1, 0], [0, 0, 0, 0], [9E9, 9E9, 9E9, 9E9, 9E9, 9E9]]; 
    CONST robtarget p156:= [[1458.8257585136698, 36.63232161917372, 990.500033578516], [0, 0, 1, 0], [0, 0, 0, 0], [9E9, 9E9, 9E9, 9E9, 9E9, 9E9]]; 
    CONST robtarget p157:= [[1458.9759052632037, 36.78392113585279, 990.500033578516], [0, 0, 1, 0], [0, 0, 0, 0], [9E9, 9E9, 9E9, 9E9, 9E9, 9E9]]; 
    CONST robtarget p158:= [[1459.209927013355, 37.045127193202816, 990.500033578516], [0, 0, 1, 0], [0, 0, 0, 0], [9E9, 9E9, 9E9, 9E9, 9E9, 9E9]]; 
    CONST robtarget p159:= [[1459.5635700622645, 37.41551480907165, 990.500033578516], [0, 0, 1, 0], [0, 0, 0, 0], [9E9, 9E9, 9E9, 9E9, 9E9, 9E9]]; 
    CONST robtarget p160:= [[1459.777057016027, 37.6337010233203, 990.500033578516], [0, 0, 1, 0], [0, 0, 0, 0], [9E9, 9E9, 9E9, 9E9, 9E9, 9E9]]; 
    CONST robtarget p161:= [[1459.7898297861043, 37.646848329420834, 990.500033578516], [0, 0, 1, 0], [0, 0, 0, 0], [9E9, 9E9, 9E9, 9E9, 9E9, 9E9]]; 
    CONST robtarget p162:= [[1459.9583925570187, 37.82425781742211, 990.500033578516], [0, 0, 1, 0], [0, 0, 0, 0], [9E9, 9E9, 9E9, 9E9, 9E9, 9E9]]; 
    CONST robtarget p163:= [[1460.2707421826585, 38.15068009178614, 990.500033578516], [0, 0, 1, 0], [0, 0, 0, 0], [9E9, 9E9, 9E9, 9E9, 9E9, 9E9]]; 
    CONST robtarget p164:= [[1460.3157394419052, 38.19844970647914, 990.500033578516], [0, 0, 1, 0], [0, 0, 0, 0], [9E9, 9E9, 9E9, 9E9, 9E9, 9E9]]; 
    CONST robtarget p165:= [[1460.3307972760324, 38.213301286895785, 990.500033578516], [0, 0, 1, 0], [0, 0, 0, 0], [9E9, 9E9, 9E9, 9E9, 9E9, 9E9]]; 
    CONST robtarget p166:= [[1460.591170330233, 38.48226066887615, 990.500033578516], [0, 0, 1, 0], [0, 0, 0, 0], [9E9, 9E9, 9E9, 9E9, 9E9, 9E9]]; 
    CONST robtarget p167:= [[1460.8295316850301, 38.725019190737726, 990.500033578516], [0, 0, 1, 0], [0, 0, 0, 0], [9E9, 9E9, 9E9, 9E9, 9E9, 9E9]]; 
    CONST robtarget p168:= [[1461.1564225777488, 39.0584672673309, 990.500033578516], [0, 0, 1, 0], [0, 0, 0, 0], [9E9, 9E9, 9E9, 9E9, 9E9, 9E9]]; 
    CONST robtarget p169:= [[1461.285998492513, 39.20051600569316, 990.500033578516], [0, 0, 1, 0], [0, 0, 0, 0], [9E9, 9E9, 9E9, 9E9, 9E9, 9E9]]; 
    CONST robtarget p170:= [[1461.3632858613896, 39.27792270157532, 990.500033578516], [0, 0, 1, 0], [0, 0, 0, 0], [9E9, 9E9, 9E9, 9E9, 9E9, 9E9]]; 
    CONST robtarget p171:= [[1461.584623448995, 39.5129342401941, 990.500033578516], [0, 0, 1, 0], [0, 0, 0, 0], [9E9, 9E9, 9E9, 9E9, 9E9, 9E9]]; 
    CONST robtarget p172:= [[1461.8243554637509, 39.75059748244318, 990.500033578516], [0, 0, 1, 0], [0, 0, 0, 0], [9E9, 9E9, 9E9, 9E9, 9E9, 9E9]]; 
    CONST robtarget p173:= [[1461.8433127094802, 39.768015036088585, 990.500033578516], [0, 0, 1, 0], [0, 0, 0, 0], [9E9, 9E9, 9E9, 9E9, 9E9, 9E9]]; 
    CONST robtarget p174:= [[1461.9234827015869, 39.83735715887562, 990.500033578516], [0, 0, 1, 0], [0, 0, 0, 0], [9E9, 9E9, 9E9, 9E9, 9E9, 9E9]]; 
    CONST robtarget p175:= [[1462.1348993950126, 40.02854684240626, 990.500033578516], [0, 0, 1, 0], [0, 0, 0, 0], [9E9, 9E9, 9E9, 9E9, 9E9, 9E9]]; 
    CONST robtarget p176:= [[1462.5762342993446, 40.4233820337745, 990.500033578516], [0, 0, 1, 0], [0, 0, 0, 0], [9E9, 9E9, 9E9, 9E9, 9E9, 9E9]]; 
    CONST robtarget p177:= [[1462.9644075547624, 40.769789909661824, 990.500033578516], [0, 0, 1, 0], [0, 0, 0, 0], [9E9, 9E9, 9E9, 9E9, 9E9, 9E9]]; 
    CONST robtarget p178:= [[1463.1503149275802, 40.93231429931943, 990.500033578516], [0, 0, 1, 0], [0, 0, 0, 0], [9E9, 9E9, 9E9, 9E9, 9E9, 9E9]]; 
    CONST robtarget p179:= [[1463.490639687496, 41.23669229498661, 990.500033578516], [0, 0, 1, 0], [0, 0, 0, 0], [9E9, 9E9, 9E9, 9E9, 9E9, 9E9]]; 
    CONST robtarget p180:= [[1463.7633533417422, 41.48312692784124, 990.500033578516], [0, 0, 1, 0], [0, 0, 0, 0], [9E9, 9E9, 9E9, 9E9, 9E9, 9E9]]; 
    CONST robtarget p181:= [[1464.0959218442356, 41.786921272886374, 990.500033578516], [0, 0, 1, 0], [0, 0, 0, 0], [9E9, 9E9, 9E9, 9E9, 9E9, 9E9]]; 
    CONST robtarget p182:= [[1464.315121733423, 41.978082844662424, 990.500033578516], [0, 0, 1, 0], [0, 0, 0, 0], [9E9, 9E9, 9E9, 9E9, 9E9, 9E9]]; 
    CONST robtarget p183:= [[1464.448378019503, 42.10060724951424, 990.500033578516], [0, 0, 1, 0], [0, 0, 0, 0], [9E9, 9E9, 9E9, 9E9, 9E9, 9E9]]; 
    CONST robtarget p184:= [[1464.6902877277398, 42.31827951893952, 990.500033578516], [0, 0, 1, 0], [0, 0, 0, 0], [9E9, 9E9, 9E9, 9E9, 9E9, 9E9]]; 
    CONST robtarget p185:= [[1464.9380659431572, 42.51592093811351, 990.500033578516], [0, 0, 1, 0], [0, 0, 0, 0], [9E9, 9E9, 9E9, 9E9, 9E9, 9E9]]; 
    CONST robtarget p186:= [[1465.2446851044197, 42.7401316870551, 990.500033578516], [0, 0, 1, 0], [0, 0, 0, 0], [9E9, 9E9, 9E9, 9E9, 9E9, 9E9]]; 
    CONST robtarget p187:= [[1465.5145286647046, 42.961491624655125, 990.500033578516], [0, 0, 1, 0], [0, 0, 0, 0], [9E9, 9E9, 9E9, 9E9, 9E9, 9E9]]; 
    CONST robtarget p188:= [[1465.6388404632692, 43.055215586916134, 990.500033578516], [0, 0, 1, 0], [0, 0, 0, 0], [9E9, 9E9, 9E9, 9E9, 9E9, 9E9]]; 
    CONST robtarget p189:= [[1465.7654333324613, 43.15503982802187, 990.500033578516], [0, 0, 1, 0], [0, 0, 0, 0], [9E9, 9E9, 9E9, 9E9, 9E9, 9E9]]; 
    CONST robtarget p190:= [[1466.0592559828206, 43.36666075392779, 990.500033578516], [0, 0, 1, 0], [0, 0, 0, 0], [9E9, 9E9, 9E9, 9E9, 9E9, 9E9]]; 
    CONST robtarget p191:= [[1466.2323488434458, 43.50611657923143, 990.500033578516], [0, 0, 1, 0], [0, 0, 0, 0], [9E9, 9E9, 9E9, 9E9, 9E9, 9E9]]; 
    CONST robtarget p192:= [[1466.4114602934487, 43.64713342731568, 990.500033578516], [0, 0, 1, 0], [0, 0, 0, 0], [9E9, 9E9, 9E9, 9E9, 9E9, 9E9]]; 
    CONST robtarget p193:= [[1466.5715632259087, 43.77667451193689, 990.500033578516], [0, 0, 1, 0], [0, 0, 0, 0], [9E9, 9E9, 9E9, 9E9, 9E9, 9E9]]; 
    CONST robtarget p194:= [[1466.6027778994555, 43.80209887759642, 990.500033578516], [0, 0, 1, 0], [0, 0, 0, 0], [9E9, 9E9, 9E9, 9E9, 9E9, 9E9]]; 
    CONST robtarget p195:= [[1467.0482154179176, 44.141761211253, 990.500033578516], [0, 0, 1, 0], [0, 0, 0, 0], [9E9, 9E9, 9E9, 9E9, 9E9, 9E9]]; 
    CONST robtarget p196:= [[1467.0952606352166, 44.18177709027297, 990.500033578516], [0, 0, 1, 0], [0, 0, 0, 0], [9E9, 9E9, 9E9, 9E9, 9E9, 9E9]]; 
    CONST robtarget p197:= [[1467.1205248120402, 44.200071742703, 990.500033578516], [0, 0, 1, 0], [0, 0, 0, 0], [9E9, 9E9, 9E9, 9E9, 9E9, 9E9]]; 
    CONST robtarget p198:= [[1467.2354359972828, 44.28585273885744, 990.500033578516], [0, 0, 1, 0], [0, 0, 0, 0], [9E9, 9E9, 9E9, 9E9, 9E9, 9E9]]; 
    CONST robtarget p199:= [[1467.5411729712512, 44.517003192491345, 990.500033578516], [0, 0, 1, 0], [0, 0, 0, 0], [9E9, 9E9, 9E9, 9E9, 9E9, 9E9]]; 
    CONST robtarget p200:= [[1467.7618267536548, 44.69772346461376, 990.500033578516], [0, 0, 1, 0], [0, 0, 0, 0], [9E9, 9E9, 9E9, 9E9, 9E9, 9E9]]; 
    CONST robtarget p201:= [[1467.9075445494814, 44.801812178933616, 990.500033578516], [0, 0, 1, 0], [0, 0, 0, 0], [9E9, 9E9, 9E9, 9E9, 9E9, 9E9]]; 
    CONST robtarget p202:= [[1468.136959183171, 44.95041608027496, 990.500033578516], [0, 0, 1, 0], [0, 0, 0, 0], [9E9, 9E9, 9E9, 9E9, 9E9, 9E9]]; 
    CONST robtarget p203:= [[1468.4396056444834, 45.16275681254848, 990.500033578516], [0, 0, 1, 0], [0, 0, 0, 0], [9E9, 9E9, 9E9, 9E9, 9E9, 9E9]]; 
    CONST robtarget p204:= [[1468.7532618135556, 45.35850383962014, 990.500033578516], [0, 0, 1, 0], [0, 0, 0, 0], [9E9, 9E9, 9E9, 9E9, 9E9, 9E9]]; 
    CONST robtarget p205:= [[1469.2353165335505, 45.68640580017873, 990.500033578516], [0, 0, 1, 0], [0, 0, 0, 0], [9E9, 9E9, 9E9, 9E9, 9E9, 9E9]]; 
    CONST robtarget p206:= [[1469.390130519198, 45.789207315502026, 990.500033578516], [0, 0, 1, 0], [0, 0, 0, 0], [9E9, 9E9, 9E9, 9E9, 9E9, 9E9]]; 
    CONST robtarget p207:= [[1469.6476287832763, 45.96180305389878, 990.500033578516], [0, 0, 1, 0], [0, 0, 0, 0], [9E9, 9E9, 9E9, 9E9, 9E9, 9E9]]; 
    CONST robtarget p208:= [[1470.2093447194798, 46.333454211361996, 990.500033578516], [0, 0, 1, 0], [0, 0, 0, 0], [9E9, 9E9, 9E9, 9E9, 9E9, 9E9]]; 
    CONST robtarget p209:= [[1470.4448778027868, 46.48447059674909, 990.500033578516], [0, 0, 1, 0], [0, 0, 0, 0], [9E9, 9E9, 9E9, 9E9, 9E9, 9E9]]; 
    CONST robtarget p210:= [[1470.7745775935036, 46.70778935309124, 990.500033578516], [0, 0, 1, 0], [0, 0, 0, 0], [9E9, 9E9, 9E9, 9E9, 9E9, 9E9]]; 
    CONST robtarget p211:= [[1471.0158341985948, 46.86567569148336, 990.500033578516], [0, 0, 1, 0], [0, 0, 0, 0], [9E9, 9E9, 9E9, 9E9, 9E9, 9E9]]; 
    CONST robtarget p212:= [[1471.2252628661051, 47.006498761074795, 990.500033578516], [0, 0, 1, 0], [0, 0, 0, 0], [9E9, 9E9, 9E9, 9E9, 9E9, 9E9]]; 
    CONST robtarget p213:= [[1471.4133162182459, 47.1142430231659, 990.500033578516], [0, 0, 1, 0], [0, 0, 0, 0], [9E9, 9E9, 9E9, 9E9, 9E9, 9E9]]; 
    CONST robtarget p214:= [[1471.743233756709, 47.2986979165339, 990.500033578516], [0, 0, 1, 0], [0, 0, 0, 0], [9E9, 9E9, 9E9, 9E9, 9E9, 9E9]]; 
    CONST robtarget p215:= [[1471.8905803075995, 47.3857786019376, 990.500033578516], [0, 0, 1, 0], [0, 0, 0, 0], [9E9, 9E9, 9E9, 9E9, 9E9, 9E9]]; 
    CONST robtarget p216:= [[1472.1406625808766, 47.52206279003764, 990.500033578516], [0, 0, 1, 0], [0, 0, 0, 0], [9E9, 9E9, 9E9, 9E9, 9E9, 9E9]]; 
    CONST robtarget p217:= [[1472.4295556515524, 47.67950263409446, 990.500033578516], [0, 0, 1, 0], [0, 0, 0, 0], [9E9, 9E9, 9E9, 9E9, 9E9, 9E9]]; 
    CONST robtarget p218:= [[1472.7659596902436, 47.87047491179433, 990.500033578516], [0, 0, 1, 0], [0, 0, 0, 0], [9E9, 9E9, 9E9, 9E9, 9E9, 9E9]]; 
    CONST robtarget p219:= [[1472.973308354198, 47.98522584413615, 990.500033578516], [0, 0, 1, 0], [0, 0, 0, 0], [9E9, 9E9, 9E9, 9E9, 9E9, 9E9]]; 
    CONST robtarget p220:= [[1473.1556909977683, 48.08624727046093, 990.500033578516], [0, 0, 1, 0], [0, 0, 0, 0], [9E9, 9E9, 9E9, 9E9, 9E9, 9E9]]; 
    CONST robtarget p221:= [[1473.2647505174466, 48.149843646022575, 990.500033578516], [0, 0, 1, 0], [0, 0, 0, 0], [9E9, 9E9, 9E9, 9E9, 9E9, 9E9]]; 
    CONST robtarget p222:= [[1473.5103005720343, 48.287165807726936, 990.500033578516], [0, 0, 1, 0], [0, 0, 0, 0], [9E9, 9E9, 9E9, 9E9, 9E9, 9E9]]; 
    CONST robtarget p223:= [[1473.532915768634, 48.29958835135233, 990.500033578516], [0, 0, 1, 0], [0, 0, 0, 0], [9E9, 9E9, 9E9, 9E9, 9E9, 9E9]]; 
    CONST robtarget p224:= [[1473.849306420697, 48.476697960192865, 990.500033578516], [0, 0, 1, 0], [0, 0, 0, 0], [9E9, 9E9, 9E9, 9E9, 9E9, 9E9]]; 
    CONST robtarget p225:= [[1473.8678003408472, 48.4869805495791, 990.500033578516], [0, 0, 1, 0], [0, 0, 0, 0], [9E9, 9E9, 9E9, 9E9, 9E9, 9E9]]; 
    CONST robtarget p226:= [[1474.001678622334, 48.562952821215006, 990.500033578516], [0, 0, 1, 0], [0, 0, 0, 0], [9E9, 9E9, 9E9, 9E9, 9E9, 9E9]]; 
    CONST robtarget p227:= [[1474.3625930079386, 48.76899264325478, 990.500033578516], [0, 0, 1, 0], [0, 0, 0, 0], [9E9, 9E9, 9E9, 9E9, 9E9, 9E9]]; 
    CONST robtarget p228:= [[1474.6010769110862, 48.903522515900605, 990.500033578516], [0, 0, 1, 0], [0, 0, 0, 0], [9E9, 9E9, 9E9, 9E9, 9E9, 9E9]]; 
    CONST robtarget p229:= [[1474.9973144989897, 49.09193890672131, 990.500033578516], [0, 0, 1, 0], [0, 0, 0, 0], [9E9, 9E9, 9E9, 9E9, 9E9, 9E9]]; 
    CONST robtarget p230:= [[1475.1534875544335, 49.1769273226781, 990.500033578516], [0, 0, 1, 0], [0, 0, 0, 0], [9E9, 9E9, 9E9, 9E9, 9E9, 9E9]]; 
    CONST robtarget p231:= [[1475.2141864962446, 49.211766775697754, 990.500033578516], [0, 0, 1, 0], [0, 0, 0, 0], [9E9, 9E9, 9E9, 9E9, 9E9, 9E9]]; 
    CONST robtarget p232:= [[1475.7682696857069, 49.467522277597155, 990.500033578516], [0, 0, 1, 0], [0, 0, 0, 0], [9E9, 9E9, 9E9, 9E9, 9E9, 9E9]]; 
    CONST robtarget p233:= [[1475.8716294038752, 49.513587427182244, 990.500033578516], [0, 0, 1, 0], [0, 0, 0, 0], [9E9, 9E9, 9E9, 9E9, 9E9, 9E9]]; 
    CONST robtarget p234:= [[1476.0973786512056, 49.621696226278246, 990.500033578516], [0, 0, 1, 0], [0, 0, 0, 0], [9E9, 9E9, 9E9, 9E9, 9E9, 9E9]]; 
    CONST robtarget p235:= [[1476.2587181611648, 49.69950732543097, 990.500033578516], [0, 0, 1, 0], [0, 0, 0, 0], [9E9, 9E9, 9E9, 9E9, 9E9, 9E9]]; 
    CONST robtarget p236:= [[1476.7029778915553, 49.90424313603978, 990.500033578516], [0, 0, 1, 0], [0, 0, 0, 0], [9E9, 9E9, 9E9, 9E9, 9E9, 9E9]]; 
    CONST robtarget p237:= [[1477.0764664807223, 50.077362678212936, 990.500033578516], [0, 0, 1, 0], [0, 0, 0, 0], [9E9, 9E9, 9E9, 9E9, 9E9, 9E9]]; 
    CONST robtarget p238:= [[1477.507690059307, 50.27785852743955, 990.500033578516], [0, 0, 1, 0], [0, 0, 0, 0], [9E9, 9E9, 9E9, 9E9, 9E9, 9E9]]; 
    CONST robtarget p239:= [[1477.95001432805, 50.4902445415246, 990.500033578516], [0, 0, 1, 0], [0, 0, 0, 0], [9E9, 9E9, 9E9, 9E9, 9E9, 9E9]]; 
    CONST robtarget p240:= [[1478.2600011107158, 50.636639522396436, 990.500033578516], [0, 0, 1, 0], [0, 0, 0, 0], [9E9, 9E9, 9E9, 9E9, 9E9, 9E9]]; 
    CONST robtarget p241:= [[1478.3503512062819, 50.680585570780465, 990.500033578516], [0, 0, 1, 0], [0, 0, 0, 0], [9E9, 9E9, 9E9, 9E9, 9E9, 9E9]]; 
    CONST robtarget p242:= [[1478.4499855306155, 50.72380651686193, 990.500033578516], [0, 0, 1, 0], [0, 0, 0, 0], [9E9, 9E9, 9E9, 9E9, 9E9, 9E9]]; 
    CONST robtarget p243:= [[1478.572027698981, 50.76972354018952, 990.500033578516], [0, 0, 1, 0], [0, 0, 0, 0], [9E9, 9E9, 9E9, 9E9, 9E9, 9E9]]; 
    CONST robtarget p244:= [[1478.9725558419136, 50.92350469602263, 990.500033578516], [0, 0, 1, 0], [0, 0, 0, 0], [9E9, 9E9, 9E9, 9E9, 9E9, 9E9]]; 
    CONST robtarget p245:= [[1479.175059279529, 51.004388753166566, 990.500033578516], [0, 0, 1, 0], [0, 0, 0, 0], [9E9, 9E9, 9E9, 9E9, 9E9, 9E9]]; 
    CONST robtarget p246:= [[1479.5062665625753, 51.130890594740336, 990.500033578516], [0, 0, 1, 0], [0, 0, 0, 0], [9E9, 9E9, 9E9, 9E9, 9E9, 9E9]]; 
    CONST robtarget p247:= [[1479.9519629728143, 51.295062619279776, 990.500033578516], [0, 0, 1, 0], [0, 0, 0, 0], [9E9, 9E9, 9E9, 9E9, 9E9, 9E9]]; 
    CONST robtarget p248:= [[1480.1165151460204, 51.36525037888454, 990.500033578516], [0, 0, 1, 0], [0, 0, 0, 0], [9E9, 9E9, 9E9, 9E9, 9E9, 9E9]]; 
    CONST robtarget p249:= [[1480.7798716587167, 51.61515437542975, 990.500033578516], [0, 0, 1, 0], [0, 0, 0, 0], [9E9, 9E9, 9E9, 9E9, 9E9, 9E9]]; 
    CONST robtarget p250:= [[1481.1878837258123, 51.772682465726575, 990.500033578516], [0, 0, 1, 0], [0, 0, 0, 0], [9E9, 9E9, 9E9, 9E9, 9E9, 9E9]]; 
    CONST robtarget p251:= [[1481.385037105585, 51.85036202468558, 990.500033578516], [0, 0, 1, 0], [0, 0, 0, 0], [9E9, 9E9, 9E9, 9E9, 9E9, 9E9]]; 
    CONST robtarget p252:= [[1481.4985287064933, 51.89216920261629, 990.500033578516], [0, 0, 1, 0], [0, 0, 0, 0], [9E9, 9E9, 9E9, 9E9, 9E9, 9E9]]; 
    CONST robtarget p253:= [[1481.8454596893812, 52.02461538188895, 990.500033578516], [0, 0, 1, 0], [0, 0, 0, 0], [9E9, 9E9, 9E9, 9E9, 9E9, 9E9]]; 
    CONST robtarget p254:= [[1482.1102490283213, 52.12347242657518, 990.500033578516], [0, 0, 1, 0], [0, 0, 0, 0], [9E9, 9E9, 9E9, 9E9, 9E9, 9E9]]; 
    CONST robtarget p255:= [[1482.3472285367066, 52.19945824609579, 990.500033578516], [0, 0, 1, 0], [0, 0, 0, 0], [9E9, 9E9, 9E9, 9E9, 9E9, 9E9]]; 
    CONST robtarget p256:= [[1482.5323283646092, 52.259005022799215, 990.500033578516], [0, 0, 1, 0], [0, 0, 0, 0], [9E9, 9E9, 9E9, 9E9, 9E9, 9E9]]; 
    CONST robtarget p257:= [[1482.7647275041284, 52.32543184572202, 990.500033578516], [0, 0, 1, 0], [0, 0, 0, 0], [9E9, 9E9, 9E9, 9E9, 9E9, 9E9]]; 
    CONST robtarget p258:= [[1483.1825286010394, 52.455874830300814, 990.500033578516], [0, 0, 1, 0], [0, 0, 0, 0], [9E9, 9E9, 9E9, 9E9, 9E9, 9E9]]; 
    CONST robtarget p259:= [[1483.366360883711, 52.510564724052884, 990.500033578516], [0, 0, 1, 0], [0, 0, 0, 0], [9E9, 9E9, 9E9, 9E9, 9E9, 9E9]]; 
    CONST robtarget p260:= [[1483.8231904325032, 52.648089533915, 990.500033578516], [0, 0, 1, 0], [0, 0, 0, 0], [9E9, 9E9, 9E9, 9E9, 9E9, 9E9]]; 
    CONST robtarget p261:= [[1483.8694947901188, 52.66141826201424, 990.500033578516], [0, 0, 1, 0], [0, 0, 0, 0], [9E9, 9E9, 9E9, 9E9, 9E9, 9E9]]; 
    CONST robtarget p262:= [[1484.1421910307029, 52.747009794530825, 990.500033578516], [0, 0, 1, 0], [0, 0, 0, 0], [9E9, 9E9, 9E9, 9E9, 9E9, 9E9]]; 
    CONST robtarget p263:= [[1484.4239641920958, 52.82665061035567, 990.500033578516], [0, 0, 1, 0], [0, 0, 0, 0], [9E9, 9E9, 9E9, 9E9, 9E9, 9E9]]; 
    CONST robtarget p264:= [[1484.8118352443857, 52.93744253332085, 990.500033578516], [0, 0, 1, 0], [0, 0, 0, 0], [9E9, 9E9, 9E9, 9E9, 9E9, 9E9]]; 
    CONST robtarget p265:= [[1484.99431996857, 52.99873391147024, 990.500033578516], [0, 0, 1, 0], [0, 0, 0, 0], [9E9, 9E9, 9E9, 9E9, 9E9, 9E9]]; 
    CONST robtarget p266:= [[1485.0980924364585, 53.03463681867214, 990.500033578516], [0, 0, 1, 0], [0, 0, 0, 0], [9E9, 9E9, 9E9, 9E9, 9E9, 9E9]]; 
    CONST robtarget p267:= [[1485.6175236671436, 53.18879141992322, 990.500033578516], [0, 0, 1, 0], [0, 0, 0, 0], [9E9, 9E9, 9E9, 9E9, 9E9, 9E9]]; 
    CONST robtarget p268:= [[1485.702708355699, 53.20999650690558, 990.500033578516], [0, 0, 1, 0], [0, 0, 0, 0], [9E9, 9E9, 9E9, 9E9, 9E9, 9E9]]; 
    CONST robtarget p269:= [[1485.9575551981895, 53.280863290768536, 990.500033578516], [0, 0, 1, 0], [0, 0, 0, 0], [9E9, 9E9, 9E9, 9E9, 9E9, 9E9]]; 
    CONST robtarget p270:= [[1486.0366469156918, 53.30087377702108, 990.500033578516], [0, 0, 1, 0], [0, 0, 0, 0], [9E9, 9E9, 9E9, 9E9, 9E9, 9E9]]; 
    CONST robtarget p271:= [[1486.3121816659745, 53.37829456422551, 990.500033578516], [0, 0, 1, 0], [0, 0, 0, 0], [9E9, 9E9, 9E9, 9E9, 9E9, 9E9]]; 
    CONST robtarget p272:= [[1486.5245390727557, 53.4244981292301, 990.500033578516], [0, 0, 1, 0], [0, 0, 0, 0], [9E9, 9E9, 9E9, 9E9, 9E9, 9E9]]; 
    CONST robtarget p273:= [[1486.711374651713, 53.46281077808787, 990.500033578516], [0, 0, 1, 0], [0, 0, 0, 0], [9E9, 9E9, 9E9, 9E9, 9E9, 9E9]]; 
    CONST robtarget p274:= [[1486.8815650440888, 53.49695799670509, 990.500033578516], [0, 0, 1, 0], [0, 0, 0, 0], [9E9, 9E9, 9E9, 9E9, 9E9, 9E9]]; 
    CONST robtarget p275:= [[1487.0618245299104, 53.533378975858795, 990.500033578516], [0, 0, 1, 0], [0, 0, 0, 0], [9E9, 9E9, 9E9, 9E9, 9E9, 9E9]]; 
    CONST robtarget p276:= [[1487.2661498133057, 53.580265143401206, 990.500033578516], [0, 0, 1, 0], [0, 0, 0, 0], [9E9, 9E9, 9E9, 9E9, 9E9, 9E9]]; 
    CONST robtarget p277:= [[1487.9363077363275, 53.74000190674464, 990.500033578516], [0, 0, 1, 0], [0, 0, 0, 0], [9E9, 9E9, 9E9, 9E9, 9E9, 9E9]]; 
    CONST robtarget p278:= [[1488.293893890058, 53.81341258537833, 990.500033578516], [0, 0, 1, 0], [0, 0, 0, 0], [9E9, 9E9, 9E9, 9E9, 9E9, 9E9]]; 
    CONST robtarget p279:= [[1488.5321266090743, 53.87299589679158, 990.500033578516], [0, 0, 1, 0], [0, 0, 0, 0], [9E9, 9E9, 9E9, 9E9, 9E9, 9E9]]; 
    CONST robtarget p280:= [[1488.6848898475275, 53.90832217009145, 990.500033578516], [0, 0, 1, 0], [0, 0, 0, 0], [9E9, 9E9, 9E9, 9E9, 9E9, 9E9]]; 
    CONST robtarget p281:= [[1488.881339338622, 53.94655492562991, 990.500033578516], [0, 0, 1, 0], [0, 0, 0, 0], [9E9, 9E9, 9E9, 9E9, 9E9, 9E9]]; 
    CONST robtarget p282:= [[1488.9855783676792, 53.96960031398939, 990.500033578516], [0, 0, 1, 0], [0, 0, 0, 0], [9E9, 9E9, 9E9, 9E9, 9E9, 9E9]]; 
    CONST robtarget p283:= [[1489.1604179320968, 54.007453732827116, 990.500033578516], [0, 0, 1, 0], [0, 0, 0, 0], [9E9, 9E9, 9E9, 9E9, 9E9, 9E9]]; 
    CONST robtarget p284:= [[1489.3138583879536, 54.0439004723802, 990.500033578516], [0, 0, 1, 0], [0, 0, 0, 0], [9E9, 9E9, 9E9, 9E9, 9E9, 9E9]]; 
    CONST robtarget p285:= [[1489.4925615547738, 54.080223450122716, 990.500033578516], [0, 0, 1, 0], [0, 0, 0, 0], [9E9, 9E9, 9E9, 9E9, 9E9, 9E9]]; 
    CONST robtarget p286:= [[1489.805335401563, 54.15518899958796, 990.500033578516], [0, 0, 1, 0], [0, 0, 0, 0], [9E9, 9E9, 9E9, 9E9, 9E9, 9E9]]; 
    CONST robtarget p287:= [[1490.0198023937494, 54.197417738949866, 990.500033578516], [0, 0, 1, 0], [0, 0, 0, 0], [9E9, 9E9, 9E9, 9E9, 9E9, 9E9]]; 
    CONST robtarget p288:= [[1490.1534285433972, 54.22135030809463, 990.500033578516], [0, 0, 1, 0], [0, 0, 0, 0], [9E9, 9E9, 9E9, 9E9, 9E9, 9E9]]; 
    CONST robtarget p289:= [[1490.454608083159, 54.262256106912375, 990.500033578516], [0, 0, 1, 0], [0, 0, 0, 0], [9E9, 9E9, 9E9, 9E9, 9E9, 9E9]]; 
    CONST robtarget p290:= [[1490.5680701445258, 54.27840337480589, 990.500033578516], [0, 0, 1, 0], [0, 0, 0, 0], [9E9, 9E9, 9E9, 9E9, 9E9, 9E9]]; 
    CONST robtarget p291:= [[1490.9356769140768, 54.331697456376574, 990.500033578516], [0, 0, 1, 0], [0, 0, 0, 0], [9E9, 9E9, 9E9, 9E9, 9E9, 9E9]]; 
    CONST robtarget p292:= [[1491.0235971056109, 54.34843763256433, 990.500033578516], [0, 0, 1, 0], [0, 0, 0, 0], [9E9, 9E9, 9E9, 9E9, 9E9, 9E9]]; 
    CONST robtarget p293:= [[1491.0578855383321, 54.35411284978211, 990.500033578516], [0, 0, 1, 0], [0, 0, 0, 0], [9E9, 9E9, 9E9, 9E9, 9E9, 9E9]]; 
    CONST robtarget p294:= [[1491.4121872943144, 54.40382720313629, 990.500033578516], [0, 0, 1, 0], [0, 0, 0, 0], [9E9, 9E9, 9E9, 9E9, 9E9, 9E9]]; 
    CONST robtarget p295:= [[1491.675561922297, 54.44601175745041, 990.500033578516], [0, 0, 1, 0], [0, 0, 0, 0], [9E9, 9E9, 9E9, 9E9, 9E9, 9E9]]; 
    CONST robtarget p296:= [[1491.9901119459842, 54.49072829286081, 990.500033578516], [0, 0, 1, 0], [0, 0, 0, 0], [9E9, 9E9, 9E9, 9E9, 9E9, 9E9]]; 
    CONST robtarget p297:= [[1492.2066877528114, 54.519275005662905, 990.500033578516], [0, 0, 1, 0], [0, 0, 0, 0], [9E9, 9E9, 9E9, 9E9, 9E9, 9E9]]; 
    CONST robtarget p298:= [[1492.3444107067455, 54.54071329898595, 990.500033578516], [0, 0, 1, 0], [0, 0, 0, 0], [9E9, 9E9, 9E9, 9E9, 9E9, 9E9]]; 
    CONST robtarget p299:= [[1493.0842771302116, 54.65109714639401, 990.500033578516], [0, 0, 1, 0], [0, 0, 0, 0], [9E9, 9E9, 9E9, 9E9, 9E9, 9E9]]; 
    CONST robtarget p300:= [[1493.098167107529, 54.65407495717321, 990.500033578516], [0, 0, 1, 0], [0, 0, 0, 0], [9E9, 9E9, 9E9, 9E9, 9E9, 9E9]]; 
    CONST robtarget p301:= [[1493.2801731248537, 54.681848198400075, 990.500033578516], [0, 0, 1, 0], [0, 0, 0, 0], [9E9, 9E9, 9E9, 9E9, 9E9, 9E9]]; 
    CONST robtarget p302:= [[1493.5001739749102, 54.70889029530102, 990.500033578516], [0, 0, 1, 0], [0, 0, 0, 0], [9E9, 9E9, 9E9, 9E9, 9E9, 9E9]]; 
    CONST robtarget p303:= [[1493.852476555009, 54.763892014715395, 990.500033578516], [0, 0, 1, 0], [0, 0, 0, 0], [9E9, 9E9, 9E9, 9E9, 9E9, 9E9]]; 
    CONST robtarget p304:= [[1493.8704497578724, 54.7652611615416, 990.500033578516], [0, 0, 1, 0], [0, 0, 0, 0], [9E9, 9E9, 9E9, 9E9, 9E9, 9E9]]; 
    CONST robtarget p305:= [[1494.2943871841699, 54.79629966452724, 990.500033578516], [0, 0, 1, 0], [0, 0, 0, 0], [9E9, 9E9, 9E9, 9E9, 9E9, 9E9]]; 
    CONST robtarget p306:= [[1494.3798026462964, 54.806162398339325, 990.500033578516], [0, 0, 1, 0], [0, 0, 0, 0], [9E9, 9E9, 9E9, 9E9, 9E9, 9E9]]; 
    CONST robtarget p307:= [[1494.739648658472, 54.83039915685514, 990.500033578516], [0, 0, 1, 0], [0, 0, 0, 0], [9E9, 9E9, 9E9, 9E9, 9E9, 9E9]]; 
    CONST robtarget p308:= [[1494.8860932359844, 54.84577754338926, 990.500033578516], [0, 0, 1, 0], [0, 0, 0, 0], [9E9, 9E9, 9E9, 9E9, 9E9, 9E9]]; 
    CONST robtarget p309:= [[1494.9876588506277, 54.85333833011278, 990.500033578516], [0, 0, 1, 0], [0, 0, 0, 0], [9E9, 9E9, 9E9, 9E9, 9E9, 9E9]]; 
    CONST robtarget p310:= [[1495.4228329572877, 54.8771470903139, 990.500033578516], [0, 0, 1, 0], [0, 0, 0, 0], [9E9, 9E9, 9E9, 9E9, 9E9, 9E9]]; 
    CONST robtarget p311:= [[1495.7061428008196, 54.91037041164313, 990.500033578516], [0, 0, 1, 0], [0, 0, 0, 0], [9E9, 9E9, 9E9, 9E9, 9E9, 9E9]]; 
    CONST robtarget p312:= [[1495.8852572574144, 54.922184715129205, 990.500033578516], [0, 0, 1, 0], [0, 0, 0, 0], [9E9, 9E9, 9E9, 9E9, 9E9, 9E9]]; 
    CONST robtarget p313:= [[1496.2975168521457, 54.94621725538704, 990.500033578516], [0, 0, 1, 0], [0, 0, 0, 0], [9E9, 9E9, 9E9, 9E9, 9E9, 9E9]]; 
    CONST robtarget p314:= [[1496.7627380824683, 54.982191677334086, 990.500033578516], [0, 0, 1, 0], [0, 0, 0, 0], [9E9, 9E9, 9E9, 9E9, 9E9, 9E9]]; 
    CONST robtarget p315:= [[1497.2174098116031, 55.01815954330165, 990.500033578516], [0, 0, 1, 0], [0, 0, 0, 0], [9E9, 9E9, 9E9, 9E9, 9E9, 9E9]]; 
    CONST robtarget p316:= [[1497.3179099327958, 55.027907564581795, 990.500033578516], [0, 0, 1, 0], [0, 0, 0, 0], [9E9, 9E9, 9E9, 9E9, 9E9, 9E9]]; 
    CONST robtarget p317:= [[1497.38908566108, 55.03097995977865, 990.500033578516], [0, 0, 1, 0], [0, 0, 0, 0], [9E9, 9E9, 9E9, 9E9, 9E9, 9E9]]; 
    CONST robtarget p318:= [[1497.6152459939042, 55.044853033279466, 990.500033578516], [0, 0, 1, 0], [0, 0, 0, 0], [9E9, 9E9, 9E9, 9E9, 9E9, 9E9]]; 
    CONST robtarget p319:= [[1497.961372509038, 55.06411194261915, 990.500033578516], [0, 0, 1, 0], [0, 0, 0, 0], [9E9, 9E9, 9E9, 9E9, 9E9, 9E9]]; 
    CONST robtarget p320:= [[1498.1615869837829, 55.072613631554006, 990.500033578516], [0, 0, 1, 0], [0, 0, 0, 0], [9E9, 9E9, 9E9, 9E9, 9E9, 9E9]]; 
    CONST robtarget p321:= [[1498.2226898758659, 55.075094851547135, 990.500033578516], [0, 0, 1, 0], [0, 0, 0, 0], [9E9, 9E9, 9E9, 9E9, 9E9, 9E9]]; 
    CONST robtarget p322:= [[1498.5255472222575, 55.06835354000853, 990.500033578516], [0, 0, 1, 0], [0, 0, 0, 0], [9E9, 9E9, 9E9, 9E9, 9E9, 9E9]]; 
    CONST robtarget p323:= [[1498.8063730207643, 55.07128415109294, 990.500033578516], [0, 0, 1, 0], [0, 0, 0, 0], [9E9, 9E9, 9E9, 9E9, 9E9, 9E9]]; 
    CONST robtarget p324:= [[1499.0386535247608, 55.0663544359728, 990.500033578516], [0, 0, 1, 0], [0, 0, 0, 0], [9E9, 9E9, 9E9, 9E9, 9E9, 9E9]]; 
    CONST robtarget p325:= [[1499.2310900137786, 55.067317623470075, 990.500033578516], [0, 0, 1, 0], [0, 0, 0, 0], [9E9, 9E9, 9E9, 9E9, 9E9, 9E9]]; 
    CONST robtarget p326:= [[1499.576896071476, 55.072496367234464, 990.500033578516], [0, 0, 1, 0], [0, 0, 0, 0], [9E9, 9E9, 9E9, 9E9, 9E9, 9E9]]; 
    CONST robtarget p327:= [[1499.6767236865169, 55.07433082087529, 990.500033578516], [0, 0, 1, 0], [0, 0, 0, 0], [9E9, 9E9, 9E9, 9E9, 9E9, 9E9]]; 
    CONST robtarget p328:= [[1500.0846125555204, 55.07709794142167, 990.500033578516], [0, 0, 1, 0], [0, 0, 0, 0], [9E9, 9E9, 9E9, 9E9, 9E9, 9E9]]; 
    CONST robtarget p329:= [[1500.2713862999767, 55.07436435886835, 990.500033578516], [0, 0, 1, 0], [0, 0, 0, 0], [9E9, 9E9, 9E9, 9E9, 9E9, 9E9]]; 
    CONST robtarget p330:= [[1500.8430891005517, 55.07745065168349, 990.500033578516], [0, 0, 1, 0], [0, 0, 0, 0], [9E9, 9E9, 9E9, 9E9, 9E9, 9E9]]; 
    CONST robtarget p331:= [[1501.1666190989354, 55.07616899576212, 990.500033578516], [0, 0, 1, 0], [0, 0, 0, 0], [9E9, 9E9, 9E9, 9E9, 9E9, 9E9]]; 
    CONST robtarget p332:= [[1501.3822980097905, 55.06976462037119, 990.500033578516], [0, 0, 1, 0], [0, 0, 0, 0], [9E9, 9E9, 9E9, 9E9, 9E9, 9E9]]; 
    CONST robtarget p333:= [[1501.5797917046505, 55.0713576604348, 990.500033578516], [0, 0, 1, 0], [0, 0, 0, 0], [9E9, 9E9, 9E9, 9E9, 9E9, 9E9]]; 
    CONST robtarget p334:= [[1501.8041874475825, 55.074208064955585, 990.500033578516], [0, 0, 1, 0], [0, 0, 0, 0], [9E9, 9E9, 9E9, 9E9, 9E9, 9E9]]; 
    CONST robtarget p335:= [[1501.9350972094844, 55.077470331406005, 990.500033578516], [0, 0, 1, 0], [0, 0, 0, 0], [9E9, 9E9, 9E9, 9E9, 9E9, 9E9]]; 
    CONST robtarget p336:= [[1502.1054988364895, 55.06856287410025, 990.500033578516], [0, 0, 1, 0], [0, 0, 0, 0], [9E9, 9E9, 9E9, 9E9, 9E9, 9E9]]; 
    CONST robtarget p337:= [[1502.301093783624, 55.054780673101604, 990.500033578516], [0, 0, 1, 0], [0, 0, 0, 0], [9E9, 9E9, 9E9, 9E9, 9E9, 9E9]]; 
    CONST robtarget p338:= [[1502.3877296191517, 55.046407866483534, 990.500033578516], [0, 0, 1, 0], [0, 0, 0, 0], [9E9, 9E9, 9E9, 9E9, 9E9, 9E9]]; 
    CONST robtarget p339:= [[1502.673923508204, 55.027133104028636, 990.500033578516], [0, 0, 1, 0], [0, 0, 0, 0], [9E9, 9E9, 9E9, 9E9, 9E9, 9E9]]; 
    CONST robtarget p340:= [[1502.833443469499, 55.01102203176961, 990.500033578516], [0, 0, 1, 0], [0, 0, 0, 0], [9E9, 9E9, 9E9, 9E9, 9E9, 9E9]]; 
    CONST robtarget p341:= [[1503.1347878993133, 54.99420708596257, 990.500033578516], [0, 0, 1, 0], [0, 0, 0, 0], [9E9, 9E9, 9E9, 9E9, 9E9, 9E9]]; 
    CONST robtarget p342:= [[1503.1977407579743, 54.988512285629966, 990.500033578516], [0, 0, 1, 0], [0, 0, 0, 0], [9E9, 9E9, 9E9, 9E9, 9E9, 9E9]]; 
    CONST robtarget p343:= [[1503.4869538556961, 54.96409644731956, 990.500033578516], [0, 0, 1, 0], [0, 0, 0, 0], [9E9, 9E9, 9E9, 9E9, 9E9, 9E9]]; 
    CONST robtarget p344:= [[1503.636897300376, 54.9560971913038, 990.500033578516], [0, 0, 1, 0], [0, 0, 0, 0], [9E9, 9E9, 9E9, 9E9, 9E9, 9E9]]; 
    CONST robtarget p345:= [[1504.0856249666565, 54.921996966135495, 990.500033578516], [0, 0, 1, 0], [0, 0, 0, 0], [9E9, 9E9, 9E9, 9E9, 9E9, 9E9]]; 
    CONST robtarget p346:= [[1504.6596627385695, 54.883338419988675, 990.500033578516], [0, 0, 1, 0], [0, 0, 0, 0], [9E9, 9E9, 9E9, 9E9, 9E9, 9E9]]; 
    CONST robtarget p347:= [[1505.024824225982, 54.84333727342624, 990.500033578516], [0, 0, 1, 0], [0, 0, 0, 0], [9E9, 9E9, 9E9, 9E9, 9E9, 9E9]]; 
    CONST robtarget p348:= [[1505.1645939698244, 54.8305409318892, 990.500033578516], [0, 0, 1, 0], [0, 0, 0, 0], [9E9, 9E9, 9E9, 9E9, 9E9, 9E9]]; 
    CONST robtarget p349:= [[1505.3581453269771, 54.819190043300964, 990.500033578516], [0, 0, 1, 0], [0, 0, 0, 0], [9E9, 9E9, 9E9, 9E9, 9E9, 9E9]]; 
    CONST robtarget p350:= [[1505.9539662383525, 54.77536443623541, 990.500033578516], [0, 0, 1, 0], [0, 0, 0, 0], [9E9, 9E9, 9E9, 9E9, 9E9, 9E9]]; 
    CONST robtarget p351:= [[1506.0427443626202, 54.76160182659834, 990.500033578516], [0, 0, 1, 0], [0, 0, 0, 0], [9E9, 9E9, 9E9, 9E9, 9E9, 9E9]]; 
    CONST robtarget p352:= [[1506.1473899561493, 54.74659099444466, 990.500033578516], [0, 0, 1, 0], [0, 0, 0, 0], [9E9, 9E9, 9E9, 9E9, 9E9, 9E9]]; 
    CONST robtarget p353:= [[1506.421962195024, 54.714741942589285, 990.500033578516], [0, 0, 1, 0], [0, 0, 0, 0], [9E9, 9E9, 9E9, 9E9, 9E9, 9E9]]; 
    CONST robtarget p354:= [[1506.5418107962712, 54.69446330827746, 990.500033578516], [0, 0, 1, 0], [0, 0, 0, 0], [9E9, 9E9, 9E9, 9E9, 9E9, 9E9]]; 
    CONST robtarget p355:= [[1506.775017061765, 54.65621061471016, 990.500033578516], [0, 0, 1, 0], [0, 0, 0, 0], [9E9, 9E9, 9E9, 9E9, 9E9, 9E9]]; 
    CONST robtarget p356:= [[1507.4812924592507, 54.56603642905837, 990.500033578516], [0, 0, 1, 0], [0, 0, 0, 0], [9E9, 9E9, 9E9, 9E9, 9E9, 9E9]]; 
    CONST robtarget p357:= [[1507.5908741272274, 54.54451924782822, 990.500033578516], [0, 0, 1, 0], [0, 0, 0, 0], [9E9, 9E9, 9E9, 9E9, 9E9, 9E9]]; 
    CONST robtarget p358:= [[1507.9934987587615, 54.482476063278085, 990.500033578516], [0, 0, 1, 0], [0, 0, 0, 0], [9E9, 9E9, 9E9, 9E9, 9E9, 9E9]]; 
    CONST robtarget p359:= [[1508.2179499437123, 54.44599440034277, 990.500033578516], [0, 0, 1, 0], [0, 0, 0, 0], [9E9, 9E9, 9E9, 9E9, 9E9, 9E9]]; 
    CONST robtarget p360:= [[1508.4832242306543, 54.409100060244356, 990.500033578516], [0, 0, 1, 0], [0, 0, 0, 0], [9E9, 9E9, 9E9, 9E9, 9E9, 9E9]]; 
    CONST robtarget p361:= [[1508.56984352321, 54.40015053967082, 990.500033578516], [0, 0, 1, 0], [0, 0, 0, 0], [9E9, 9E9, 9E9, 9E9, 9E9, 9E9]]; 
    CONST robtarget p362:= [[1508.8993241003504, 54.36001484026876, 990.500033578516], [0, 0, 1, 0], [0, 0, 0, 0], [9E9, 9E9, 9E9, 9E9, 9E9, 9E9]]; 
    CONST robtarget p363:= [[1509.090494935723, 54.326750462029096, 990.500033578516], [0, 0, 1, 0], [0, 0, 0, 0], [9E9, 9E9, 9E9, 9E9, 9E9, 9E9]]; 
    CONST robtarget p364:= [[1509.5187322466904, 54.26776540961819, 990.500033578516], [0, 0, 1, 0], [0, 0, 0, 0], [9E9, 9E9, 9E9, 9E9, 9E9, 9E9]]; 
    CONST robtarget p365:= [[1509.7324833732964, 54.22639885933978, 990.500033578516], [0, 0, 1, 0], [0, 0, 0, 0], [9E9, 9E9, 9E9, 9E9, 9E9, 9E9]]; 
    CONST robtarget p366:= [[1510.1425341366719, 54.16596709322869, 990.500033578516], [0, 0, 1, 0], [0, 0, 0, 0], [9E9, 9E9, 9E9, 9E9, 9E9, 9E9]]; 
    CONST robtarget p367:= [[1510.2513486184191, 54.141748460917526, 990.500033578516], [0, 0, 1, 0], [0, 0, 0, 0], [9E9, 9E9, 9E9, 9E9, 9E9, 9E9]]; 
    CONST robtarget p368:= [[1510.746336268443, 54.023669620564306, 990.500033578516], [0, 0, 1, 0], [0, 0, 0, 0], [9E9, 9E9, 9E9, 9E9, 9E9, 9E9]]; 
    CONST robtarget p369:= [[1510.8823278438813, 54.00035488663377, 990.500033578516], [0, 0, 1, 0], [0, 0, 0, 0], [9E9, 9E9, 9E9, 9E9, 9E9, 9E9]]; 
    CONST robtarget p370:= [[1511.020100917921, 53.97023629651429, 990.500033578516], [0, 0, 1, 0], [0, 0, 0, 0], [9E9, 9E9, 9E9, 9E9, 9E9, 9E9]]; 
    CONST robtarget p371:= [[1511.5992415856851, 53.83409085718334, 990.500033578516], [0, 0, 1, 0], [0, 0, 0, 0], [9E9, 9E9, 9E9, 9E9, 9E9, 9E9]]; 
    CONST robtarget p372:= [[1511.7222587459296, 53.81262138685223, 990.500033578516], [0, 0, 1, 0], [0, 0, 0, 0], [9E9, 9E9, 9E9, 9E9, 9E9, 9E9]]; 
    CONST robtarget p373:= [[1512.1442002392887, 53.70933196408582, 990.500033578516], [0, 0, 1, 0], [0, 0, 0, 0], [9E9, 9E9, 9E9, 9E9, 9E9, 9E9]]; 
    CONST robtarget p374:= [[1512.5468023366097, 53.62591487391029, 990.500033578516], [0, 0, 1, 0], [0, 0, 0, 0], [9E9, 9E9, 9E9, 9E9, 9E9, 9E9]]; 
    CONST robtarget p375:= [[1512.6422051384047, 53.60081770985764, 990.500033578516], [0, 0, 1, 0], [0, 0, 0, 0], [9E9, 9E9, 9E9, 9E9, 9E9, 9E9]]; 
    CONST robtarget p376:= [[1513.1008733558208, 53.5025146349536, 990.500033578516], [0, 0, 1, 0], [0, 0, 0, 0], [9E9, 9E9, 9E9, 9E9, 9E9, 9E9]]; 
    CONST robtarget p377:= [[1513.34737317608, 53.45238135132492, 990.500033578516], [0, 0, 1, 0], [0, 0, 0, 0], [9E9, 9E9, 9E9, 9E9, 9E9, 9E9]]; 
    CONST robtarget p378:= [[1513.4800034132484, 53.42041604288349, 990.500033578516], [0, 0, 1, 0], [0, 0, 0, 0], [9E9, 9E9, 9E9, 9E9, 9E9, 9E9]]; 
    CONST robtarget p379:= [[1513.703115138049, 53.371876933785046, 990.500033578516], [0, 0, 1, 0], [0, 0, 0, 0], [9E9, 9E9, 9E9, 9E9, 9E9, 9E9]]; 
    CONST robtarget p380:= [[1513.8861272191166, 53.32466101674777, 990.500033578516], [0, 0, 1, 0], [0, 0, 0, 0], [9E9, 9E9, 9E9, 9E9, 9E9, 9E9]]; 
    CONST robtarget p381:= [[1514.0244004001784, 53.2864805894084, 990.500033578516], [0, 0, 1, 0], [0, 0, 0, 0], [9E9, 9E9, 9E9, 9E9, 9E9, 9E9]]; 
    CONST robtarget p382:= [[1514.252441782622, 53.225522243538975, 990.500033578516], [0, 0, 1, 0], [0, 0, 0, 0], [9E9, 9E9, 9E9, 9E9, 9E9, 9E9]]; 
    CONST robtarget p383:= [[1514.8583427773174, 53.03407987658376, 990.500033578516], [0, 0, 1, 0], [0, 0, 0, 0], [9E9, 9E9, 9E9, 9E9, 9E9, 9E9]]; 
    CONST robtarget p384:= [[1515.0803301552967, 52.97532960946343, 990.500033578516], [0, 0, 1, 0], [0, 0, 0, 0], [9E9, 9E9, 9E9, 9E9, 9E9, 9E9]]; 
    CONST robtarget p385:= [[1515.3018978287917, 52.90505714495772, 990.500033578516], [0, 0, 1, 0], [0, 0, 0, 0], [9E9, 9E9, 9E9, 9E9, 9E9, 9E9]]; 
    CONST robtarget p386:= [[1515.563293225727, 52.82821732201634, 990.500033578516], [0, 0, 1, 0], [0, 0, 0, 0], [9E9, 9E9, 9E9, 9E9, 9E9, 9E9]]; 
    CONST robtarget p387:= [[1516.0079828859105, 52.6967770914853, 990.500033578516], [0, 0, 1, 0], [0, 0, 0, 0], [9E9, 9E9, 9E9, 9E9, 9E9, 9E9]]; 
    CONST robtarget p388:= [[1516.2046754733021, 52.63368290931409, 990.500033578516], [0, 0, 1, 0], [0, 0, 0, 0], [9E9, 9E9, 9E9, 9E9, 9E9, 9E9]]; 
    CONST robtarget p389:= [[1516.521448195359, 52.54318712489547, 990.500033578516], [0, 0, 1, 0], [0, 0, 0, 0], [9E9, 9E9, 9E9, 9E9, 9E9, 9E9]]; 
    CONST robtarget p390:= [[1516.7875675898144, 52.460202170484465, 990.500033578516], [0, 0, 1, 0], [0, 0, 0, 0], [9E9, 9E9, 9E9, 9E9, 9E9, 9E9]]; 
    CONST robtarget p391:= [[1516.967619152787, 52.40796559414461, 990.500033578516], [0, 0, 1, 0], [0, 0, 0, 0], [9E9, 9E9, 9E9, 9E9, 9E9, 9E9]]; 
    CONST robtarget p392:= [[1517.241633366774, 52.32592175004717, 990.500033578516], [0, 0, 1, 0], [0, 0, 0, 0], [9E9, 9E9, 9E9, 9E9, 9E9, 9E9]]; 
    CONST robtarget p393:= [[1517.4474272460093, 52.265299243992246, 990.500033578516], [0, 0, 1, 0], [0, 0, 0, 0], [9E9, 9E9, 9E9, 9E9, 9E9, 9E9]]; 
    CONST robtarget p394:= [[1517.6014974682416, 52.21856786204715, 990.500033578516], [0, 0, 1, 0], [0, 0, 0, 0], [9E9, 9E9, 9E9, 9E9, 9E9, 9E9]]; 
    CONST robtarget p395:= [[1517.7699594378732, 52.16418671321584, 990.500033578516], [0, 0, 1, 0], [0, 0, 0, 0], [9E9, 9E9, 9E9, 9E9, 9E9, 9E9]]; 
    CONST robtarget p396:= [[1518.00735123993, 52.06993921300085, 990.500033578516], [0, 0, 1, 0], [0, 0, 0, 0], [9E9, 9E9, 9E9, 9E9, 9E9, 9E9]]; 
    CONST robtarget p397:= [[1518.3029905771402, 51.96575096661711, 990.500033578516], [0, 0, 1, 0], [0, 0, 0, 0], [9E9, 9E9, 9E9, 9E9, 9E9, 9E9]]; 
    CONST robtarget p398:= [[1518.7476805080805, 51.79326802359117, 990.500033578516], [0, 0, 1, 0], [0, 0, 0, 0], [9E9, 9E9, 9E9, 9E9, 9E9, 9E9]]; 
    CONST robtarget p399:= [[1519.0184557258556, 51.68465477872277, 990.500033578516], [0, 0, 1, 0], [0, 0, 0, 0], [9E9, 9E9, 9E9, 9E9, 9E9, 9E9]]; 
    CONST robtarget p400:= [[1519.3444597132163, 51.55017448262906, 990.500033578516], [0, 0, 1, 0], [0, 0, 0, 0], [9E9, 9E9, 9E9, 9E9, 9E9, 9E9]]; 
    CONST robtarget p401:= [[1519.6731538366541, 51.43768872958134, 990.500033578516], [0, 0, 1, 0], [0, 0, 0, 0], [9E9, 9E9, 9E9, 9E9, 9E9, 9E9]]; 
    CONST robtarget p402:= [[1519.7923960836704, 51.38836711749417, 990.500033578516], [0, 0, 1, 0], [0, 0, 0, 0], [9E9, 9E9, 9E9, 9E9, 9E9, 9E9]]; 
    CONST robtarget p403:= [[1520.0877007310478, 51.27826586980801, 990.500033578516], [0, 0, 1, 0], [0, 0, 0, 0], [9E9, 9E9, 9E9, 9E9, 9E9, 9E9]]; 
    CONST robtarget p404:= [[1520.2790375542795, 51.20178360944932, 990.500033578516], [0, 0, 1, 0], [0, 0, 0, 0], [9E9, 9E9, 9E9, 9E9, 9E9, 9E9]]; 
    CONST robtarget p405:= [[1520.671169784929, 51.052366543655694, 990.500033578516], [0, 0, 1, 0], [0, 0, 0, 0], [9E9, 9E9, 9E9, 9E9, 9E9, 9E9]]; 
    CONST robtarget p406:= [[1520.6870886909498, 51.04678104168646, 990.500033578516], [0, 0, 1, 0], [0, 0, 0, 0], [9E9, 9E9, 9E9, 9E9, 9E9, 9E9]]; 
    CONST robtarget p407:= [[1520.922888794562, 50.9631239818722, 990.500033578516], [0, 0, 1, 0], [0, 0, 0, 0], [9E9, 9E9, 9E9, 9E9, 9E9, 9E9]]; 
    CONST robtarget p408:= [[1521.3244512700946, 50.8055735977874, 990.500033578516], [0, 0, 1, 0], [0, 0, 0, 0], [9E9, 9E9, 9E9, 9E9, 9E9, 9E9]]; 
    CONST robtarget p409:= [[1521.4995038062962, 50.7401807425223, 990.500033578516], [0, 0, 1, 0], [0, 0, 0, 0], [9E9, 9E9, 9E9, 9E9, 9E9, 9E9]]; 
    CONST robtarget p410:= [[1521.8308265433782, 50.59028452631611, 990.500033578516], [0, 0, 1, 0], [0, 0, 0, 0], [9E9, 9E9, 9E9, 9E9, 9E9, 9E9]]; 
    CONST robtarget p411:= [[1522.0572764215149, 50.485402270116836, 990.500033578516], [0, 0, 1, 0], [0, 0, 0, 0], [9E9, 9E9, 9E9, 9E9, 9E9, 9E9]]; 
    CONST robtarget p412:= [[1522.3629649882082, 50.34186047603083, 990.500033578516], [0, 0, 1, 0], [0, 0, 0, 0], [9E9, 9E9, 9E9, 9E9, 9E9, 9E9]]; 
    CONST robtarget p413:= [[1522.4637034020564, 50.292325395188655, 990.500033578516], [0, 0, 1, 0], [0, 0, 0, 0], [9E9, 9E9, 9E9, 9E9, 9E9, 9E9]]; 
    CONST robtarget p414:= [[1522.5900718196283, 50.229362237801695, 990.500033578516], [0, 0, 1, 0], [0, 0, 0, 0], [9E9, 9E9, 9E9, 9E9, 9E9, 9E9]]; 
    CONST robtarget p415:= [[1523.0142830248417, 50.03616065922127, 990.500033578516], [0, 0, 1, 0], [0, 0, 0, 0], [9E9, 9E9, 9E9, 9E9, 9E9, 9E9]]; 
    CONST robtarget p416:= [[1523.1587684798199, 49.96771471486399, 990.500033578516], [0, 0, 1, 0], [0, 0, 0, 0], [9E9, 9E9, 9E9, 9E9, 9E9, 9E9]]; 
    CONST robtarget p417:= [[1523.3685592244601, 49.870443725315866, 990.500033578516], [0, 0, 1, 0], [0, 0, 0, 0], [9E9, 9E9, 9E9, 9E9, 9E9, 9E9]]; 
    CONST robtarget p418:= [[1523.467803923819, 49.82308677260323, 990.500033578516], [0, 0, 1, 0], [0, 0, 0, 0], [9E9, 9E9, 9E9, 9E9, 9E9, 9E9]]; 
    CONST robtarget p419:= [[1523.7470102040159, 49.68549692015, 990.500033578516], [0, 0, 1, 0], [0, 0, 0, 0], [9E9, 9E9, 9E9, 9E9, 9E9, 9E9]]; 
    CONST robtarget p420:= [[1523.8575024450329, 49.63681147109037, 990.500033578516], [0, 0, 1, 0], [0, 0, 0, 0], [9E9, 9E9, 9E9, 9E9, 9E9, 9E9]]; 
    CONST robtarget p421:= [[1524.2671531626877, 49.448708089283016, 990.500033578516], [0, 0, 1, 0], [0, 0, 0, 0], [9E9, 9E9, 9E9, 9E9, 9E9, 9E9]]; 
    CONST robtarget p422:= [[1524.5452010955378, 49.30223428959094, 990.500033578516], [0, 0, 1, 0], [0, 0, 0, 0], [9E9, 9E9, 9E9, 9E9, 9E9, 9E9]]; 
    CONST robtarget p423:= [[1524.9738260090865, 49.11577268054117, 990.500033578516], [0, 0, 1, 0], [0, 0, 0, 0], [9E9, 9E9, 9E9, 9E9, 9E9, 9E9]]; 
    CONST robtarget p424:= [[1525.2364614500557, 48.974913847653994, 990.500033578516], [0, 0, 1, 0], [0, 0, 0, 0], [9E9, 9E9, 9E9, 9E9, 9E9, 9E9]]; 
    CONST robtarget p425:= [[1525.3670385355094, 48.90891463190927, 990.500033578516], [0, 0, 1, 0], [0, 0, 0, 0], [9E9, 9E9, 9E9, 9E9, 9E9, 9E9]]; 
    CONST robtarget p426:= [[1525.5460092364901, 48.81084841899401, 990.500033578516], [0, 0, 1, 0], [0, 0, 0, 0], [9E9, 9E9, 9E9, 9E9, 9E9, 9E9]]; 
    CONST robtarget p427:= [[1525.6627442352055, 48.750272828850115, 990.500033578516], [0, 0, 1, 0], [0, 0, 0, 0], [9E9, 9E9, 9E9, 9E9, 9E9, 9E9]]; 
    CONST robtarget p428:= [[1526.07266750946, 48.51191837638662, 990.500033578516], [0, 0, 1, 0], [0, 0, 0, 0], [9E9, 9E9, 9E9, 9E9, 9E9, 9E9]]; 
    CONST robtarget p429:= [[1526.4041227295147, 48.332527362740734, 990.500033578516], [0, 0, 1, 0], [0, 0, 0, 0], [9E9, 9E9, 9E9, 9E9, 9E9, 9E9]]; 
    CONST robtarget p430:= [[1526.7015369302692, 48.16323877336143, 990.500033578516], [0, 0, 1, 0], [0, 0, 0, 0], [9E9, 9E9, 9E9, 9E9, 9E9, 9E9]]; 
    CONST robtarget p431:= [[1526.8036365841976, 48.11089121320154, 990.500033578516], [0, 0, 1, 0], [0, 0, 0, 0], [9E9, 9E9, 9E9, 9E9, 9E9, 9E9]]; 
    CONST robtarget p432:= [[1526.9644160572122, 48.022139514069295, 990.500033578516], [0, 0, 1, 0], [0, 0, 0, 0], [9E9, 9E9, 9E9, 9E9, 9E9, 9E9]]; 
    CONST robtarget p433:= [[1527.1917686447566, 47.891393758063145, 990.500033578516], [0, 0, 1, 0], [0, 0, 0, 0], [9E9, 9E9, 9E9, 9E9, 9E9, 9E9]]; 
    CONST robtarget p434:= [[1527.3375901884465, 47.812499773906154, 990.500033578516], [0, 0, 1, 0], [0, 0, 0, 0], [9E9, 9E9, 9E9, 9E9, 9E9, 9E9]]; 
    CONST robtarget p435:= [[1527.7977159984885, 47.550298909226825, 990.500033578516], [0, 0, 1, 0], [0, 0, 0, 0], [9E9, 9E9, 9E9, 9E9, 9E9, 9E9]]; 
    CONST robtarget p436:= [[1527.8950759428526, 47.49897867203751, 990.500033578516], [0, 0, 1, 0], [0, 0, 0, 0], [9E9, 9E9, 9E9, 9E9, 9E9, 9E9]]; 
    CONST robtarget p437:= [[1528.0755463372318, 47.393732238376955, 990.500033578516], [0, 0, 1, 0], [0, 0, 0, 0], [9E9, 9E9, 9E9, 9E9, 9E9, 9E9]]; 
    CONST robtarget p438:= [[1528.3904541622403, 47.21159653234943, 990.500033578516], [0, 0, 1, 0], [0, 0, 0, 0], [9E9, 9E9, 9E9, 9E9, 9E9, 9E9]]; 
    CONST robtarget p439:= [[1528.687949939382, 47.046943797956615, 990.500033578516], [0, 0, 1, 0], [0, 0, 0, 0], [9E9, 9E9, 9E9, 9E9, 9E9, 9E9]]; 
    CONST robtarget p440:= [[1528.8291033176486, 46.96183993193695, 990.500033578516], [0, 0, 1, 0], [0, 0, 0, 0], [9E9, 9E9, 9E9, 9E9, 9E9, 9E9]]; 
    CONST robtarget p441:= [[1529.023322858784, 46.82912541605694, 990.500033578516], [0, 0, 1, 0], [0, 0, 0, 0], [9E9, 9E9, 9E9, 9E9, 9E9, 9E9]]; 
    CONST robtarget p442:= [[1529.410833318744, 46.56193902689775, 990.500033578516], [0, 0, 1, 0], [0, 0, 0, 0], [9E9, 9E9, 9E9, 9E9, 9E9, 9E9]]; 
    CONST robtarget p443:= [[1529.590069098347, 46.45215208484345, 990.500033578516], [0, 0, 1, 0], [0, 0, 0, 0], [9E9, 9E9, 9E9, 9E9, 9E9, 9E9]]; 
    CONST robtarget p444:= [[1529.7828291828248, 46.32986903752298, 990.500033578516], [0, 0, 1, 0], [0, 0, 0, 0], [9E9, 9E9, 9E9, 9E9, 9E9, 9E9]]; 
    CONST robtarget p445:= [[1530.083166328702, 46.11878052770378, 990.500033578516], [0, 0, 1, 0], [0, 0, 0, 0], [9E9, 9E9, 9E9, 9E9, 9E9, 9E9]]; 
    CONST robtarget p446:= [[1530.5300323205736, 45.82855666286413, 990.500033578516], [0, 0, 1, 0], [0, 0, 0, 0], [9E9, 9E9, 9E9, 9E9, 9E9, 9E9]]; 
    CONST robtarget p447:= [[1530.799633881644, 45.65343621813747, 990.500033578516], [0, 0, 1, 0], [0, 0, 0, 0], [9E9, 9E9, 9E9, 9E9, 9E9, 9E9]]; 
    CONST robtarget p448:= [[1530.8232713295813, 45.63861815039557, 990.500033578516], [0, 0, 1, 0], [0, 0, 0, 0], [9E9, 9E9, 9E9, 9E9, 9E9, 9E9]]; 
    CONST robtarget p449:= [[1531.0594812276695, 45.47523998699663, 990.500033578516], [0, 0, 1, 0], [0, 0, 0, 0], [9E9, 9E9, 9E9, 9E9, 9E9, 9E9]]; 
    CONST robtarget p450:= [[1531.4072409043927, 45.256031232800794, 990.500033578516], [0, 0, 1, 0], [0, 0, 0, 0], [9E9, 9E9, 9E9, 9E9, 9E9, 9E9]]; 
    CONST robtarget p451:= [[1531.5948053809896, 45.12333578045951, 990.500033578516], [0, 0, 1, 0], [0, 0, 0, 0], [9E9, 9E9, 9E9, 9E9, 9E9, 9E9]]; 
    CONST robtarget p452:= [[1531.9532519386566, 44.892216485420576, 990.500033578516], [0, 0, 1, 0], [0, 0, 0, 0], [9E9, 9E9, 9E9, 9E9, 9E9, 9E9]]; 
    CONST robtarget p453:= [[1531.9571245546904, 44.88965077654662, 990.500033578516], [0, 0, 1, 0], [0, 0, 0, 0], [9E9, 9E9, 9E9, 9E9, 9E9, 9E9]]; 
    CONST robtarget p454:= [[1532.1082175610204, 44.7878910031862, 990.500033578516], [0, 0, 1, 0], [0, 0, 0, 0], [9E9, 9E9, 9E9, 9E9, 9E9, 9E9]]; 
    CONST robtarget p455:= [[1532.32584095296, 44.61644696921542, 990.500033578516], [0, 0, 1, 0], [0, 0, 0, 0], [9E9, 9E9, 9E9, 9E9, 9E9, 9E9]]; 
    CONST robtarget p456:= [[1532.6655772915249, 44.343377991185775, 990.500033578516], [0, 0, 1, 0], [0, 0, 0, 0], [9E9, 9E9, 9E9, 9E9, 9E9, 9E9]]; 
    CONST robtarget p457:= [[1532.760051863386, 44.273345376598144, 990.500033578516], [0, 0, 1, 0], [0, 0, 0, 0], [9E9, 9E9, 9E9, 9E9, 9E9, 9E9]]; 
    CONST robtarget p458:= [[1533.0603863149806, 44.04876268659393, 990.500033578516], [0, 0, 1, 0], [0, 0, 0, 0], [9E9, 9E9, 9E9, 9E9, 9E9, 9E9]]; 
    CONST robtarget p459:= [[1533.1639103190773, 43.967836336073006, 990.500033578516], [0, 0, 1, 0], [0, 0, 0, 0], [9E9, 9E9, 9E9, 9E9, 9E9, 9E9]]; 
    CONST robtarget p460:= [[1533.5541313011258, 43.667434539059556, 990.500033578516], [0, 0, 1, 0], [0, 0, 0, 0], [9E9, 9E9, 9E9, 9E9, 9E9, 9E9]]; 
    CONST robtarget p461:= [[1533.8362648975858, 43.450284298669246, 990.500033578516], [0, 0, 1, 0], [0, 0, 0, 0], [9E9, 9E9, 9E9, 9E9, 9E9, 9E9]]; 
    CONST robtarget p462:= [[1533.9437934178718, 43.36345426884235, 990.500033578516], [0, 0, 1, 0], [0, 0, 0, 0], [9E9, 9E9, 9E9, 9E9, 9E9, 9E9]]; 
    CONST robtarget p463:= [[1534.0792784686362, 43.25406123487427, 990.500033578516], [0, 0, 1, 0], [0, 0, 0, 0], [9E9, 9E9, 9E9, 9E9, 9E9, 9E9]]; 
    CONST robtarget p464:= [[1534.2251557589539, 43.143676940375045, 990.500033578516], [0, 0, 1, 0], [0, 0, 0, 0], [9E9, 9E9, 9E9, 9E9, 9E9, 9E9]]; 
    CONST robtarget p465:= [[1534.279888911862, 43.103288730217926, 990.500033578516], [0, 0, 1, 0], [0, 0, 0, 0], [9E9, 9E9, 9E9, 9E9, 9E9, 9E9]]; 
    CONST robtarget p466:= [[1534.48628302034, 42.951023635448635, 990.500033578516], [0, 0, 1, 0], [0, 0, 0, 0], [9E9, 9E9, 9E9, 9E9, 9E9, 9E9]]; 
    CONST robtarget p467:= [[1534.8682248533103, 42.642118444684655, 990.500033578516], [0, 0, 1, 0], [0, 0, 0, 0], [9E9, 9E9, 9E9, 9E9, 9E9, 9E9]]; 
    CONST robtarget p468:= [[1535.1263157830217, 42.45614406046526, 990.500033578516], [0, 0, 1, 0], [0, 0, 0, 0], [9E9, 9E9, 9E9, 9E9, 9E9, 9E9]]; 
    CONST robtarget p469:= [[1535.6212654653798, 42.02223450539154, 990.500033578516], [0, 0, 1, 0], [0, 0, 0, 0], [9E9, 9E9, 9E9, 9E9, 9E9, 9E9]]; 
    CONST robtarget p470:= [[1535.8559173177007, 41.818073074400914, 990.500033578516], [0, 0, 1, 0], [0, 0, 0, 0], [9E9, 9E9, 9E9, 9E9, 9E9, 9E9]]; 
    CONST robtarget p471:= [[1536.4725767809202, 41.266223621512296, 990.500033578516], [0, 0, 1, 0], [0, 0, 0, 0], [9E9, 9E9, 9E9, 9E9, 9E9, 9E9]]; 
    CONST robtarget p472:= [[1536.6043590967722, 41.14073357988548, 990.500033578516], [0, 0, 1, 0], [0, 0, 0, 0], [9E9, 9E9, 9E9, 9E9, 9E9, 9E9]]; 
    CONST robtarget p473:= [[1536.9104402349028, 40.863539912457114, 990.500033578516], [0, 0, 1, 0], [0, 0, 0, 0], [9E9, 9E9, 9E9, 9E9, 9E9, 9E9]]; 
    CONST robtarget p474:= [[1537.0088789955046, 40.7759670530893, 990.500033578516], [0, 0, 1, 0], [0, 0, 0, 0], [9E9, 9E9, 9E9, 9E9, 9E9, 9E9]]; 
    CONST robtarget p475:= [[1537.334625128539, 40.49198694679001, 990.500033578516], [0, 0, 1, 0], [0, 0, 0, 0], [9E9, 9E9, 9E9, 9E9, 9E9, 9E9]]; 
    CONST robtarget p476:= [[1537.4809344936414, 40.363068675278015, 990.500033578516], [0, 0, 1, 0], [0, 0, 0, 0], [9E9, 9E9, 9E9, 9E9, 9E9, 9E9]]; 
    CONST robtarget p477:= [[1538.0460396103545, 39.85149164773338, 990.500033578516], [0, 0, 1, 0], [0, 0, 0, 0], [9E9, 9E9, 9E9, 9E9, 9E9, 9E9]]; 
    CONST robtarget p478:= [[1538.2492306837928, 39.66922876744604, 990.500033578516], [0, 0, 1, 0], [0, 0, 0, 0], [9E9, 9E9, 9E9, 9E9, 9E9, 9E9]]; 
    CONST robtarget p479:= [[1538.2983972436973, 39.617224581389976, 990.500033578516], [0, 0, 1, 0], [0, 0, 0, 0], [9E9, 9E9, 9E9, 9E9, 9E9, 9E9]]; 
    CONST robtarget p480:= [[1538.655585707272, 39.250430481865294, 990.500033578516], [0, 0, 1, 0], [0, 0, 0, 0], [9E9, 9E9, 9E9, 9E9, 9E9, 9E9]]; 
    CONST robtarget p481:= [[1538.768562064355, 39.12982929002128, 990.500033578516], [0, 0, 1, 0], [0, 0, 0, 0], [9E9, 9E9, 9E9, 9E9, 9E9, 9E9]]; 
    CONST robtarget p482:= [[1539.0192946865652, 38.868917851925076, 990.500033578516], [0, 0, 1, 0], [0, 0, 0, 0], [9E9, 9E9, 9E9, 9E9, 9E9, 9E9]]; 
    CONST robtarget p483:= [[1539.0988482513415, 38.78706825253499, 990.500033578516], [0, 0, 1, 0], [0, 0, 0, 0], [9E9, 9E9, 9E9, 9E9, 9E9, 9E9]]; 
    CONST robtarget p484:= [[1539.1282816659257, 38.755836133812195, 990.500033578516], [0, 0, 1, 0], [0, 0, 0, 0], [9E9, 9E9, 9E9, 9E9, 9E9, 9E9]]; 
    CONST robtarget p485:= [[1539.3443185975937, 38.5382056650173, 990.500033578516], [0, 0, 1, 0], [0, 0, 0, 0], [9E9, 9E9, 9E9, 9E9, 9E9, 9E9]]; 
    CONST robtarget p486:= [[1539.4863446426796, 38.3857331449357, 990.500033578516], [0, 0, 1, 0], [0, 0, 0, 0], [9E9, 9E9, 9E9, 9E9, 9E9, 9E9]]; 
    CONST robtarget p487:= [[1539.8709451813695, 37.99246136072669, 990.500033578516], [0, 0, 1, 0], [0, 0, 0, 0], [9E9, 9E9, 9E9, 9E9, 9E9, 9E9]]; 
    CONST robtarget p488:= [[1540.1182681199375, 37.7294794382092, 990.500033578516], [0, 0, 1, 0], [0, 0, 0, 0], [9E9, 9E9, 9E9, 9E9, 9E9, 9E9]]; 
    CONST robtarget p489:= [[1540.323773009481, 37.50652397502782, 990.500033578516], [0, 0, 1, 0], [0, 0, 0, 0], [9E9, 9E9, 9E9, 9E9, 9E9, 9E9]]; 
    CONST robtarget p490:= [[1540.5048502700647, 37.33022894507586, 990.500033578516], [0, 0, 1, 0], [0, 0, 0, 0], [9E9, 9E9, 9E9, 9E9, 9E9, 9E9]]; 
    CONST robtarget p491:= [[1540.684834352241, 37.13871461778821, 990.500033578516], [0, 0, 1, 0], [0, 0, 0, 0], [9E9, 9E9, 9E9, 9E9, 9E9, 9E9]]; 
    CONST robtarget p492:= [[1540.8215013050228, 36.99726247503753, 990.500033578516], [0, 0, 1, 0], [0, 0, 0, 0], [9E9, 9E9, 9E9, 9E9, 9E9, 9E9]]; 
    CONST robtarget p493:= [[1540.9288739203068, 36.885398339847114, 990.500033578516], [0, 0, 1, 0], [0, 0, 0, 0], [9E9, 9E9, 9E9, 9E9, 9E9, 9E9]]; 
    CONST robtarget p494:= [[1540.9537267279052, 36.859123901104965, 990.500033578516], [0, 0, 1, 0], [0, 0, 0, 0], [9E9, 9E9, 9E9, 9E9, 9E9, 9E9]]; 
    CONST robtarget p495:= [[1541.0764826591562, 36.72947283066014, 990.500033578516], [0, 0, 1, 0], [0, 0, 0, 0], [9E9, 9E9, 9E9, 9E9, 9E9, 9E9]]; 
    CONST robtarget p496:= [[1541.2144219783054, 36.56486247427125, 990.500033578516], [0, 0, 1, 0], [0, 0, 0, 0], [9E9, 9E9, 9E9, 9E9, 9E9, 9E9]]; 
    CONST robtarget p497:= [[1541.433701862915, 36.30777427736791, 990.500033578516], [0, 0, 1, 0], [0, 0, 0, 0], [9E9, 9E9, 9E9, 9E9, 9E9, 9E9]]; 
    CONST robtarget p498:= [[1541.634022049252, 36.067253591515055, 990.500033578516], [0, 0, 1, 0], [0, 0, 0, 0], [9E9, 9E9, 9E9, 9E9, 9E9, 9E9]]; 
    CONST robtarget p499:= [[1542.0050422957013, 35.61834458975345, 990.500033578516], [0, 0, 1, 0], [0, 0, 0, 0], [9E9, 9E9, 9E9, 9E9, 9E9, 9E9]]; 
    CONST robtarget p500:= [[1542.4342904290497, 35.1025991266694, 990.500033578516], [0, 0, 1, 0], [0, 0, 0, 0], [9E9, 9E9, 9E9, 9E9, 9E9, 9E9]]; 
    CONST robtarget p501:= [[1542.5008875619687, 35.025225348538, 990.500033578516], [0, 0, 1, 0], [0, 0, 0, 0], [9E9, 9E9, 9E9, 9E9, 9E9, 9E9]]; 
    CONST robtarget p502:= [[1542.7254840342835, 34.755629476516106, 990.500033578516], [0, 0, 1, 0], [0, 0, 0, 0], [9E9, 9E9, 9E9, 9E9, 9E9, 9E9]]; 
    CONST robtarget p503:= [[1542.8959886399118, 34.54936308571163, 990.500033578516], [0, 0, 1, 0], [0, 0, 0, 0], [9E9, 9E9, 9E9, 9E9, 9E9, 9E9]]; 
    CONST robtarget p504:= [[1543.0501646417765, 34.357524962737656, 990.500033578516], [0, 0, 1, 0], [0, 0, 0, 0], [9E9, 9E9, 9E9, 9E9, 9E9, 9E9]]; 
    CONST robtarget p505:= [[1543.0995777979215, 34.29633555388672, 990.500033578516], [0, 0, 1, 0], [0, 0, 0, 0], [9E9, 9E9, 9E9, 9E9, 9E9, 9E9]]; 
    CONST robtarget p506:= [[1543.3576071622274, 33.986369572399155, 990.500033578516], [0, 0, 1, 0], [0, 0, 0, 0], [9E9, 9E9, 9E9, 9E9, 9E9, 9E9]]; 
    CONST robtarget p507:= [[1543.433552862486, 33.89335577293964, 990.500033578516], [0, 0, 1, 0], [0, 0, 0, 0], [9E9, 9E9, 9E9, 9E9, 9E9, 9E9]]; 
    CONST robtarget p508:= [[1543.6314903349125, 33.66412601933611, 990.500033578516], [0, 0, 1, 0], [0, 0, 0, 0], [9E9, 9E9, 9E9, 9E9, 9E9, 9E9]]; 
    CONST robtarget p509:= [[1543.6452311304379, 33.64403269204226, 990.500033578516], [0, 0, 1, 0], [0, 0, 0, 0], [9E9, 9E9, 9E9, 9E9, 9E9, 9E9]]; 
    CONST robtarget p510:= [[1543.943543146774, 33.22186993477101, 990.500033578516], [0, 0, 1, 0], [0, 0, 0, 0], [9E9, 9E9, 9E9, 9E9, 9E9, 9E9]]; 
    CONST robtarget p511:= [[1544.1695325230694, 32.91067412151129, 990.500033578516], [0, 0, 1, 0], [0, 0, 0, 0], [9E9, 9E9, 9E9, 9E9, 9E9, 9E9]]; 
    CONST robtarget p512:= [[1544.247946087013, 32.79365579572861, 990.500033578516], [0, 0, 1, 0], [0, 0, 0, 0], [9E9, 9E9, 9E9, 9E9, 9E9, 9E9]]; 
    CONST robtarget p513:= [[1544.4990156780157, 32.446288378607946, 990.500033578516], [0, 0, 1, 0], [0, 0, 0, 0], [9E9, 9E9, 9E9, 9E9, 9E9, 9E9]]; 
    CONST robtarget p514:= [[1544.9142827654687, 31.86541872715766, 990.500033578516], [0, 0, 1, 0], [0, 0, 0, 0], [9E9, 9E9, 9E9, 9E9, 9E9, 9E9]]; 
    CONST robtarget p515:= [[1545.0378294777247, 31.69408561184133, 990.500033578516], [0, 0, 1, 0], [0, 0, 0, 0], [9E9, 9E9, 9E9, 9E9, 9E9, 9E9]]; 
    CONST robtarget p516:= [[1545.1197110661305, 31.57515937253055, 990.500033578516], [0, 0, 1, 0], [0, 0, 0, 0], [9E9, 9E9, 9E9, 9E9, 9E9, 9E9]]; 
    CONST robtarget p517:= [[1545.2649386245496, 31.372139428015146, 990.500033578516], [0, 0, 1, 0], [0, 0, 0, 0], [9E9, 9E9, 9E9, 9E9, 9E9, 9E9]]; 
    CONST robtarget p518:= [[1545.4237963325131, 31.152023885324013, 990.500033578516], [0, 0, 1, 0], [0, 0, 0, 0], [9E9, 9E9, 9E9, 9E9, 9E9, 9E9]]; 
    CONST robtarget p519:= [[1545.6377429333575, 30.85544283522121, 990.500033578516], [0, 0, 1, 0], [0, 0, 0, 0], [9E9, 9E9, 9E9, 9E9, 9E9, 9E9]]; 
    CONST robtarget p520:= [[1545.931530155939, 30.429347687299355, 990.500033578516], [0, 0, 1, 0], [0, 0, 0, 0], [9E9, 9E9, 9E9, 9E9, 9E9, 9E9]]; 
    CONST robtarget p521:= [[1546.0346684561002, 30.28158440149835, 990.500033578516], [0, 0, 1, 0], [0, 0, 0, 0], [9E9, 9E9, 9E9, 9E9, 9E9, 9E9]]; 
    CONST robtarget p522:= [[1546.1430046621867, 30.09964846150028, 990.500033578516], [0, 0, 1, 0], [0, 0, 0, 0], [9E9, 9E9, 9E9, 9E9, 9E9, 9E9]]; 
    CONST robtarget p523:= [[1546.232576034597, 29.941997209646374, 990.500033578516], [0, 0, 1, 0], [0, 0, 0, 0], [9E9, 9E9, 9E9, 9E9, 9E9, 9E9]]; 
    CONST robtarget p524:= [[1546.361320328018, 29.734659515344447, 990.500033578516], [0, 0, 1, 0], [0, 0, 0, 0], [9E9, 9E9, 9E9, 9E9, 9E9, 9E9]]; 
    CONST robtarget p525:= [[1546.4609678500703, 29.5681729838154, 990.500033578516], [0, 0, 1, 0], [0, 0, 0, 0], [9E9, 9E9, 9E9, 9E9, 9E9, 9E9]]; 
    CONST robtarget p526:= [[1546.632428852986, 29.299329244154094, 990.500033578516], [0, 0, 1, 0], [0, 0, 0, 0], [9E9, 9E9, 9E9, 9E9, 9E9, 9E9]]; 
    CONST robtarget p527:= [[1546.6787645850827, 29.226420585310265, 990.500033578516], [0, 0, 1, 0], [0, 0, 0, 0], [9E9, 9E9, 9E9, 9E9, 9E9, 9E9]]; 
    CONST robtarget p528:= [[1546.7328167691117, 29.132587324476162, 990.500033578516], [0, 0, 1, 0], [0, 0, 0, 0], [9E9, 9E9, 9E9, 9E9, 9E9, 9E9]]; 
    CONST robtarget p529:= [[1546.9726367870237, 28.744829905982584, 990.500033578516], [0, 0, 1, 0], [0, 0, 0, 0], [9E9, 9E9, 9E9, 9E9, 9E9, 9E9]]; 
    CONST robtarget p530:= [[1547.2731618252708, 28.25195941914862, 990.500033578516], [0, 0, 1, 0], [0, 0, 0, 0], [9E9, 9E9, 9E9, 9E9, 9E9, 9E9]]; 
    CONST robtarget p531:= [[1547.4047019988486, 28.039256888517116, 990.500033578516], [0, 0, 1, 0], [0, 0, 0, 0], [9E9, 9E9, 9E9, 9E9, 9E9, 9E9]]; 
    CONST robtarget p532:= [[1547.6073021043562, 27.710362480214314, 990.500033578516], [0, 0, 1, 0], [0, 0, 0, 0], [9E9, 9E9, 9E9, 9E9, 9E9, 9E9]]; 
    CONST robtarget p533:= [[1547.7710770022697, 27.441551672579152, 990.500033578516], [0, 0, 1, 0], [0, 0, 0, 0], [9E9, 9E9, 9E9, 9E9, 9E9, 9E9]]; 
    CONST robtarget p534:= [[1547.8040960601365, 27.386884296098373, 990.500033578516], [0, 0, 1, 0], [0, 0, 0, 0], [9E9, 9E9, 9E9, 9E9, 9E9, 9E9]]; 
    CONST robtarget p535:= [[1547.9186000416591, 27.187456913046177, 990.500033578516], [0, 0, 1, 0], [0, 0, 0, 0], [9E9, 9E9, 9E9, 9E9, 9E9, 9E9]]; 
    CONST robtarget p536:= [[1548.0503277708376, 26.972214214650606, 990.500033578516], [0, 0, 1, 0], [0, 0, 0, 0], [9E9, 9E9, 9E9, 9E9, 9E9, 9E9]]; 
    CONST robtarget p537:= [[1548.0998159952983, 26.880792825106866, 990.500033578516], [0, 0, 1, 0], [0, 0, 0, 0], [9E9, 9E9, 9E9, 9E9, 9E9, 9E9]]; 
    CONST robtarget p538:= [[1548.19254083933, 26.71022071051118, 990.500033578516], [0, 0, 1, 0], [0, 0, 0, 0], [9E9, 9E9, 9E9, 9E9, 9E9, 9E9]]; 
    CONST robtarget p539:= [[1548.2348388493385, 26.628012881714994, 990.500033578516], [0, 0, 1, 0], [0, 0, 0, 0], [9E9, 9E9, 9E9, 9E9, 9E9, 9E9]]; 
    CONST robtarget p540:= [[1548.2714665434173, 26.552762871405605, 990.500033578516], [0, 0, 1, 0], [0, 0, 0, 0], [9E9, 9E9, 9E9, 9E9, 9E9, 9E9]]; 
    CONST robtarget p541:= [[1548.3117154594486, 26.47251731723459, 990.500033578516], [0, 0, 1, 0], [0, 0, 0, 0], [9E9, 9E9, 9E9, 9E9, 9E9, 9E9]]; 
    CONST robtarget p542:= [[1548.5210528938712, 26.06744787932297, 990.500033578516], [0, 0, 1, 0], [0, 0, 0, 0], [9E9, 9E9, 9E9, 9E9, 9E9, 9E9]]; 
    CONST robtarget p543:= [[1548.6132374249464, 25.88383684782019, 990.500033578516], [0, 0, 1, 0], [0, 0, 0, 0], [9E9, 9E9, 9E9, 9E9, 9E9, 9E9]]; 
    CONST robtarget p544:= [[1548.7155642121213, 25.67998262878372, 990.500033578516], [0, 0, 1, 0], [0, 0, 0, 0], [9E9, 9E9, 9E9, 9E9, 9E9, 9E9]]; 
    CONST robtarget p545:= [[1548.8348762233054, 25.45137137647083, 990.500033578516], [0, 0, 1, 0], [0, 0, 0, 0], [9E9, 9E9, 9E9, 9E9, 9E9, 9E9]]; 
    CONST robtarget p546:= [[1548.9641924912028, 25.19324402207461, 990.500033578516], [0, 0, 1, 0], [0, 0, 0, 0], [9E9, 9E9, 9E9, 9E9, 9E9, 9E9]]; 
    CONST robtarget p547:= [[1549.1169477546891, 24.900156993420467, 990.500033578516], [0, 0, 1, 0], [0, 0, 0, 0], [9E9, 9E9, 9E9, 9E9, 9E9, 9E9]]; 
    CONST robtarget p548:= [[1549.1547665999594, 24.8280199886064, 990.500033578516], [0, 0, 1, 0], [0, 0, 0, 0], [9E9, 9E9, 9E9, 9E9, 9E9, 9E9]]; 
    CONST robtarget p549:= [[1549.264347374743, 24.611624344454057, 990.500033578516], [0, 0, 1, 0], [0, 0, 0, 0], [9E9, 9E9, 9E9, 9E9, 9E9, 9E9]]; 
    CONST robtarget p550:= [[1549.368966633416, 24.419371431945777, 990.500033578516], [0, 0, 1, 0], [0, 0, 0, 0], [9E9, 9E9, 9E9, 9E9, 9E9, 9E9]]; 
    CONST robtarget p551:= [[1549.4442480833693, 24.259577058575374, 990.500033578516], [0, 0, 1, 0], [0, 0, 0, 0], [9E9, 9E9, 9E9, 9E9, 9E9, 9E9]]; 
    CONST robtarget p552:= [[1549.497997672396, 24.149641376673173, 990.500033578516], [0, 0, 1, 0], [0, 0, 0, 0], [9E9, 9E9, 9E9, 9E9, 9E9, 9E9]]; 
    CONST robtarget p553:= [[1549.63941935533, 23.888304038641394, 990.500033578516], [0, 0, 1, 0], [0, 0, 0, 0], [9E9, 9E9, 9E9, 9E9, 9E9, 9E9]]; 
    CONST robtarget p554:= [[1549.7999662029001, 23.57134071123349, 990.500033578516], [0, 0, 1, 0], [0, 0, 0, 0], [9E9, 9E9, 9E9, 9E9, 9E9, 9E9]]; 
    CONST robtarget p555:= [[1549.934261279203, 23.29617969723637, 990.500033578516], [0, 0, 1, 0], [0, 0, 0, 0], [9E9, 9E9, 9E9, 9E9, 9E9, 9E9]]; 
    CONST robtarget p556:= [[1550.1811399152225, 22.68052438372149, 990.500033578516], [0, 0, 1, 0], [0, 0, 0, 0], [9E9, 9E9, 9E9, 9E9, 9E9, 9E9]]; 
    CONST robtarget p557:= [[1550.4095930807325, 22.178247125968838, 990.500033578516], [0, 0, 1, 0], [0, 0, 0, 0], [9E9, 9E9, 9E9, 9E9, 9E9, 9E9]]; 
    CONST robtarget p558:= [[1550.5177395797855, 21.918593966289023, 990.500033578516], [0, 0, 1, 0], [0, 0, 0, 0], [9E9, 9E9, 9E9, 9E9, 9E9, 9E9]]; 
    CONST robtarget p559:= [[1550.634794581051, 21.654944314289224, 990.500033578516], [0, 0, 1, 0], [0, 0, 0, 0], [9E9, 9E9, 9E9, 9E9, 9E9, 9E9]]; 
    CONST robtarget p560:= [[1550.671930550163, 21.564810048470306, 990.500033578516], [0, 0, 1, 0], [0, 0, 0, 0], [9E9, 9E9, 9E9, 9E9, 9E9, 9E9]]; 
    CONST robtarget p561:= [[1550.7628754381105, 21.34803544475041, 990.500033578516], [0, 0, 1, 0], [0, 0, 0, 0], [9E9, 9E9, 9E9, 9E9, 9E9, 9E9]]; 
    CONST robtarget p562:= [[1550.806881922611, 21.242779442017778, 990.500033578516], [0, 0, 1, 0], [0, 0, 0, 0], [9E9, 9E9, 9E9, 9E9, 9E9, 9E9]]; 
    CONST robtarget p563:= [[1550.8903293970036, 21.033956170111153, 990.500033578516], [0, 0, 1, 0], [0, 0, 0, 0], [9E9, 9E9, 9E9, 9E9, 9E9, 9E9]]; 
    CONST robtarget p564:= [[1550.947045502042, 20.875242673851602, 990.500033578516], [0, 0, 1, 0], [0, 0, 0, 0], [9E9, 9E9, 9E9, 9E9, 9E9, 9E9]]; 
    CONST robtarget p565:= [[1551.1340250552432, 20.433218106322684, 990.500033578516], [0, 0, 1, 0], [0, 0, 0, 0], [9E9, 9E9, 9E9, 9E9, 9E9, 9E9]]; 
    CONST robtarget p566:= [[1551.2676798530922, 20.14027125449742, 990.500033578516], [0, 0, 1, 0], [0, 0, 0, 0], [9E9, 9E9, 9E9, 9E9, 9E9, 9E9]]; 
    CONST robtarget p567:= [[1551.314467282189, 20.032972300742088, 990.500033578516], [0, 0, 1, 0], [0, 0, 0, 0], [9E9, 9E9, 9E9, 9E9, 9E9, 9E9]]; 
    CONST robtarget p568:= [[1551.3438353915938, 19.958604703096455, 990.500033578516], [0, 0, 1, 0], [0, 0, 0, 0], [9E9, 9E9, 9E9, 9E9, 9E9, 9E9]]; 
    CONST robtarget p569:= [[1551.4368685257157, 19.736268610032184, 990.500033578516], [0, 0, 1, 0], [0, 0, 0, 0], [9E9, 9E9, 9E9, 9E9, 9E9, 9E9]]; 
    CONST robtarget p570:= [[1551.4847504746158, 19.6136083174961, 990.500033578516], [0, 0, 1, 0], [0, 0, 0, 0], [9E9, 9E9, 9E9, 9E9, 9E9, 9E9]]; 
    CONST robtarget p571:= [[1551.5762883341422, 19.37150871436525, 990.500033578516], [0, 0, 1, 0], [0, 0, 0, 0], [9E9, 9E9, 9E9, 9E9, 9E9, 9E9]]; 
    CONST robtarget p572:= [[1551.6647644769857, 19.10982751449575, 990.500033578516], [0, 0, 1, 0], [0, 0, 0, 0], [9E9, 9E9, 9E9, 9E9, 9E9, 9E9]]; 
    CONST robtarget p573:= [[1551.7789230793383, 18.751112705013796, 990.500033578516], [0, 0, 1, 0], [0, 0, 0, 0], [9E9, 9E9, 9E9, 9E9, 9E9, 9E9]]; 
    CONST robtarget p574:= [[1551.9158166928262, 18.354725299620796, 990.500033578516], [0, 0, 1, 0], [0, 0, 0, 0], [9E9, 9E9, 9E9, 9E9, 9E9, 9E9]]; 
    CONST robtarget p575:= [[1551.9965875650455, 18.145127122575218, 990.500033578516], [0, 0, 1, 0], [0, 0, 0, 0], [9E9, 9E9, 9E9, 9E9, 9E9, 9E9]]; 
    CONST robtarget p576:= [[1552.05803043547, 17.96063723510909, 990.500033578516], [0, 0, 1, 0], [0, 0, 0, 0], [9E9, 9E9, 9E9, 9E9, 9E9, 9E9]]; 
    CONST robtarget p577:= [[1552.0694173266288, 17.9245101000447, 990.500033578516], [0, 0, 1, 0], [0, 0, 0, 0], [9E9, 9E9, 9E9, 9E9, 9E9, 9E9]]; 
    CONST robtarget p578:= [[1552.107194298613, 17.8045377187008, 990.500033578516], [0, 0, 1, 0], [0, 0, 0, 0], [9E9, 9E9, 9E9, 9E9, 9E9, 9E9]]; 
    CONST robtarget p579:= [[1552.1720441244906, 17.615623667805565, 990.500033578516], [0, 0, 1, 0], [0, 0, 0, 0], [9E9, 9E9, 9E9, 9E9, 9E9, 9E9]]; 
    CONST robtarget p580:= [[1552.2480056495478, 17.40969301266361, 990.500033578516], [0, 0, 1, 0], [0, 0, 0, 0], [9E9, 9E9, 9E9, 9E9, 9E9, 9E9]]; 
    CONST robtarget p581:= [[1552.3000306869446, 17.2565409573086, 990.500033578516], [0, 0, 1, 0], [0, 0, 0, 0], [9E9, 9E9, 9E9, 9E9, 9E9, 9E9]]; 
    CONST robtarget p582:= [[1552.3045798665662, 17.241812394642324, 990.500033578516], [0, 0, 1, 0], [0, 0, 0, 0], [9E9, 9E9, 9E9, 9E9, 9E9, 9E9]]; 
    CONST robtarget p583:= [[1552.4192905397572, 16.900383996524454, 990.500033578516], [0, 0, 1, 0], [0, 0, 0, 0], [9E9, 9E9, 9E9, 9E9, 9E9, 9E9]]; 
    CONST robtarget p584:= [[1552.4531505457562, 16.8095967759744, 990.500033578516], [0, 0, 1, 0], [0, 0, 0, 0], [9E9, 9E9, 9E9, 9E9, 9E9, 9E9]]; 
    CONST robtarget p585:= [[1552.5765538189237, 16.436533515997766, 990.500033578516], [0, 0, 1, 0], [0, 0, 0, 0], [9E9, 9E9, 9E9, 9E9, 9E9, 9E9]]; 
    CONST robtarget p586:= [[1552.6135554205248, 16.303012202107894, 990.500033578516], [0, 0, 1, 0], [0, 0, 0, 0], [9E9, 9E9, 9E9, 9E9, 9E9, 9E9]]; 
    CONST robtarget p587:= [[1552.7749433308056, 15.831951732884662, 990.500033578516], [0, 0, 1, 0], [0, 0, 0, 0], [9E9, 9E9, 9E9, 9E9, 9E9, 9E9]]; 
    CONST robtarget p588:= [[1552.8308624987367, 15.64264610500554, 990.500033578516], [0, 0, 1, 0], [0, 0, 0, 0], [9E9, 9E9, 9E9, 9E9, 9E9, 9E9]]; 
    CONST robtarget p589:= [[1552.8658868290302, 15.518762122454248, 990.500033578516], [0, 0, 1, 0], [0, 0, 0, 0], [9E9, 9E9, 9E9, 9E9, 9E9, 9E9]]; 
    CONST robtarget p590:= [[1552.9703089828204, 15.093582099374814, 990.500033578516], [0, 0, 1, 0], [0, 0, 0, 0], [9E9, 9E9, 9E9, 9E9, 9E9, 9E9]]; 
    CONST robtarget p591:= [[1553.0360230962783, 14.82508952837459, 990.500033578516], [0, 0, 1, 0], [0, 0, 0, 0], [9E9, 9E9, 9E9, 9E9, 9E9, 9E9]]; 
    CONST robtarget p592:= [[1553.1182256236743, 14.542738818228216, 990.500033578516], [0, 0, 1, 0], [0, 0, 0, 0], [9E9, 9E9, 9E9, 9E9, 9E9, 9E9]]; 
    CONST robtarget p593:= [[1553.1384378023938, 14.454206622183179, 990.500033578516], [0, 0, 1, 0], [0, 0, 0, 0], [9E9, 9E9, 9E9, 9E9, 9E9, 9E9]]; 
    CONST robtarget p594:= [[1553.1599439677987, 14.354956650290816, 990.500033578516], [0, 0, 1, 0], [0, 0, 0, 0], [9E9, 9E9, 9E9, 9E9, 9E9, 9E9]]; 
    CONST robtarget p595:= [[1553.204665583402, 14.172207674914944, 990.500033578516], [0, 0, 1, 0], [0, 0, 0, 0], [9E9, 9E9, 9E9, 9E9, 9E9, 9E9]]; 
    CONST robtarget p596:= [[1553.320741517316, 13.771376242695155, 990.500033578516], [0, 0, 1, 0], [0, 0, 0, 0], [9E9, 9E9, 9E9, 9E9, 9E9, 9E9]]; 
    CONST robtarget p597:= [[1553.3617613219312, 13.615032350327354, 990.500033578516], [0, 0, 1, 0], [0, 0, 0, 0], [9E9, 9E9, 9E9, 9E9, 9E9, 9E9]]; 
    CONST robtarget p598:= [[1553.430353615988, 13.318552924187898, 990.500033578516], [0, 0, 1, 0], [0, 0, 0, 0], [9E9, 9E9, 9E9, 9E9, 9E9, 9E9]]; 
    CONST robtarget p599:= [[1553.5047097946294, 13.059677740696586, 990.500033578516], [0, 0, 1, 0], [0, 0, 0, 0], [9E9, 9E9, 9E9, 9E9, 9E9, 9E9]]; 
    CONST robtarget p600:= [[1553.5648239667717, 12.811744539330192, 990.500033578516], [0, 0, 1, 0], [0, 0, 0, 0], [9E9, 9E9, 9E9, 9E9, 9E9, 9E9]]; 
    CONST robtarget p601:= [[1553.6605819150323, 12.453831783358908, 990.500033578516], [0, 0, 1, 0], [0, 0, 0, 0], [9E9, 9E9, 9E9, 9E9, 9E9, 9E9]]; 
    CONST robtarget p602:= [[1553.7432368273837, 12.15551741694405, 990.500033578516], [0, 0, 1, 0], [0, 0, 0, 0], [9E9, 9E9, 9E9, 9E9, 9E9, 9E9]]; 
    CONST robtarget p603:= [[1553.7935086855516, 11.910919031435938, 990.500033578516], [0, 0, 1, 0], [0, 0, 0, 0], [9E9, 9E9, 9E9, 9E9, 9E9, 9E9]]; 
    CONST robtarget p604:= [[1553.8546046205927, 11.630124472612763, 990.500033578516], [0, 0, 1, 0], [0, 0, 0, 0], [9E9, 9E9, 9E9, 9E9, 9E9, 9E9]]; 
    CONST robtarget p605:= [[1553.8688513293596, 11.546177039762341, 990.500033578516], [0, 0, 1, 0], [0, 0, 0, 0], [9E9, 9E9, 9E9, 9E9, 9E9, 9E9]]; 
    CONST robtarget p606:= [[1553.9287325254797, 11.233459837878925, 990.500033578516], [0, 0, 1, 0], [0, 0, 0, 0], [9E9, 9E9, 9E9, 9E9, 9E9, 9E9]]; 
    CONST robtarget p607:= [[1553.992534451792, 10.857847364369292, 990.500033578516], [0, 0, 1, 0], [0, 0, 0, 0], [9E9, 9E9, 9E9, 9E9, 9E9, 9E9]]; 
    CONST robtarget p608:= [[1554.017940249374, 10.740788121082929, 990.500033578516], [0, 0, 1, 0], [0, 0, 0, 0], [9E9, 9E9, 9E9, 9E9, 9E9, 9E9]]; 
    CONST robtarget p609:= [[1554.0606682570603, 10.496874753975092, 990.500033578516], [0, 0, 1, 0], [0, 0, 0, 0], [9E9, 9E9, 9E9, 9E9, 9E9, 9E9]]; 
    CONST robtarget p610:= [[1554.1228027754985, 10.177075467431067, 990.500033578516], [0, 0, 1, 0], [0, 0, 0, 0], [9E9, 9E9, 9E9, 9E9, 9E9, 9E9]]; 
    CONST robtarget p611:= [[1554.1438340573798, 10.05559959550476, 990.500033578516], [0, 0, 1, 0], [0, 0, 0, 0], [9E9, 9E9, 9E9, 9E9, 9E9, 9E9]]; 
    CONST robtarget p612:= [[1554.1758724961853, 9.868580860496039, 990.500033578516], [0, 0, 1, 0], [0, 0, 0, 0], [9E9, 9E9, 9E9, 9E9, 9E9, 9E9]]; 
    CONST robtarget p613:= [[1554.2815803116139, 9.314366718224335, 990.500033578516], [0, 0, 1, 0], [0, 0, 0, 0], [9E9, 9E9, 9E9, 9E9, 9E9, 9E9]]; 
    CONST robtarget p614:= [[1554.343620312012, 8.918318146570698, 990.500033578516], [0, 0, 1, 0], [0, 0, 0, 0], [9E9, 9E9, 9E9, 9E9, 9E9, 9E9]]; 
    CONST robtarget p615:= [[1554.4132249889044, 8.589582158969336, 990.500033578516], [0, 0, 1, 0], [0, 0, 0, 0], [9E9, 9E9, 9E9, 9E9, 9E9, 9E9]]; 
    CONST robtarget p616:= [[1554.4384569644562, 8.443791465094975, 990.500033578516], [0, 0, 1, 0], [0, 0, 0, 0], [9E9, 9E9, 9E9, 9E9, 9E9, 9E9]]; 
    CONST robtarget p617:= [[1554.485257693144, 8.16360320766087, 990.500033578516], [0, 0, 1, 0], [0, 0, 0, 0], [9E9, 9E9, 9E9, 9E9, 9E9, 9E9]]; 
    CONST robtarget p618:= [[1554.487311112414, 8.147583071376275, 990.500033578516], [0, 0, 1, 0], [0, 0, 0, 0], [9E9, 9E9, 9E9, 9E9, 9E9, 9E9]]; 
    CONST robtarget p619:= [[1554.508801557709, 7.951706228432158, 990.500033578516], [0, 0, 1, 0], [0, 0, 0, 0], [9E9, 9E9, 9E9, 9E9, 9E9, 9E9]]; 
    CONST robtarget p620:= [[1554.565455307692, 7.512487425243918, 990.500033578516], [0, 0, 1, 0], [0, 0, 0, 0], [9E9, 9E9, 9E9, 9E9, 9E9, 9E9]]; 
    CONST robtarget p621:= [[1554.601724317087, 7.271720736334757, 990.500033578516], [0, 0, 1, 0], [0, 0, 0, 0], [9E9, 9E9, 9E9, 9E9, 9E9, 9E9]]; 
    CONST robtarget p622:= [[1554.6241466955157, 7.024800470103472, 990.500033578516], [0, 0, 1, 0], [0, 0, 0, 0], [9E9, 9E9, 9E9, 9E9, 9E9, 9E9]]; 
    CONST robtarget p623:= [[1554.6568220528773, 6.7518488880100165, 990.500033578516], [0, 0, 1, 0], [0, 0, 0, 0], [9E9, 9E9, 9E9, 9E9, 9E9, 9E9]]; 
    CONST robtarget p624:= [[1554.6757359228466, 6.569360330979649, 990.500033578516], [0, 0, 1, 0], [0, 0, 0, 0], [9E9, 9E9, 9E9, 9E9, 9E9, 9E9]]; 
    CONST robtarget p625:= [[1554.715757666679, 6.253722476568967, 990.500033578516], [0, 0, 1, 0], [0, 0, 0, 0], [9E9, 9E9, 9E9, 9E9, 9E9, 9E9]]; 
    CONST robtarget p626:= [[1554.732050449032, 6.0487375934674645, 990.500033578516], [0, 0, 1, 0], [0, 0, 0, 0], [9E9, 9E9, 9E9, 9E9, 9E9, 9E9]]; 
    CONST robtarget p627:= [[1554.7612427299273, 5.7946157549601764, 990.500033578516], [0, 0, 1, 0], [0, 0, 0, 0], [9E9, 9E9, 9E9, 9E9, 9E9, 9E9]]; 
    CONST robtarget p628:= [[1554.7802864799487, 5.6330220020708595, 990.500033578516], [0, 0, 1, 0], [0, 0, 0, 0], [9E9, 9E9, 9E9, 9E9, 9E9, 9E9]]; 
    CONST robtarget p629:= [[1554.8143692208582, 5.3444611949142455, 990.500033578516], [0, 0, 1, 0], [0, 0, 0, 0], [9E9, 9E9, 9E9, 9E9, 9E9, 9E9]]; 
    CONST robtarget p630:= [[1554.8416696782208, 5.058145874922417, 990.500033578516], [0, 0, 1, 0], [0, 0, 0, 0], [9E9, 9E9, 9E9, 9E9, 9E9, 9E9]]; 
    CONST robtarget p631:= [[1554.8535071346364, 4.968908531203496, 990.500033578516], [0, 0, 1, 0], [0, 0, 0, 0], [9E9, 9E9, 9E9, 9E9, 9E9, 9E9]]; 
    CONST robtarget p632:= [[1554.8901297820312, 4.6706769767147875, 990.500033578516], [0, 0, 1, 0], [0, 0, 0, 0], [9E9, 9E9, 9E9, 9E9, 9E9, 9E9]]; 
    CONST robtarget p633:= [[1554.9203244495804, 4.281827377282454, 990.500033578516], [0, 0, 1, 0], [0, 0, 0, 0], [9E9, 9E9, 9E9, 9E9, 9E9, 9E9]]; 
    CONST robtarget p634:= [[1554.9654175707453, 3.845094211698836, 990.500033578516], [0, 0, 1, 0], [0, 0, 0, 0], [9E9, 9E9, 9E9, 9E9, 9E9, 9E9]]; 
    CONST robtarget p635:= [[1554.9675271541032, 3.7669973424108747, 990.500033578516], [0, 0, 1, 0], [0, 0, 0, 0], [9E9, 9E9, 9E9, 9E9, 9E9, 9E9]]; 
    CONST robtarget p636:= [[1554.9845781787549, 3.3575596460965187, 990.500033578516], [0, 0, 1, 0], [0, 0, 0, 0], [9E9, 9E9, 9E9, 9E9, 9E9, 9E9]]; 
    CONST robtarget p637:= [[1554.9931762578167, 3.1411803880376823, 990.500033578516], [0, 0, 1, 0], [0, 0, 0, 0], [9E9, 9E9, 9E9, 9E9, 9E9, 9E9]]; 
    CONST robtarget p638:= [[1554.999532795549, 2.988345233591133, 990.500033578516], [0, 0, 1, 0], [0, 0, 0, 0], [9E9, 9E9, 9E9, 9E9, 9E9, 9E9]]; 
    CONST robtarget p639:= [[1555.0114007619911, 2.5581527143630893, 990.500033578516], [0, 0, 1, 0], [0, 0, 0, 0], [9E9, 9E9, 9E9, 9E9, 9E9, 9E9]]; 
    CONST robtarget p640:= [[1555.0146959340211, 2.488181948197095, 990.500033578516], [0, 0, 1, 0], [0, 0, 0, 0], [9E9, 9E9, 9E9, 9E9, 9E9, 9E9]]; 
    CONST robtarget p641:= [[1555.0282122710505, 2.2027803231154763, 990.500033578516], [0, 0, 1, 0], [0, 0, 0, 0], [9E9, 9E9, 9E9, 9E9, 9E9, 9E9]]; 
    CONST robtarget p642:= [[1555.0417120515556, 1.6871242252126706, 990.500033578516], [0, 0, 1, 0], [0, 0, 0, 0], [9E9, 9E9, 9E9, 9E9, 9E9, 9E9]]; 
    CONST robtarget p643:= [[1555.0482829887387, 1.5938305560347459, 990.500033578516], [0, 0, 1, 0], [0, 0, 0, 0], [9E9, 9E9, 9E9, 9E9, 9E9, 9E9]]; 
    CONST robtarget p644:= [[1555.0589059340932, 1.3677817800714394, 990.500033578516], [0, 0, 1, 0], [0, 0, 0, 0], [9E9, 9E9, 9E9, 9E9, 9E9, 9E9]]; 
    CONST robtarget p645:= [[1555.0644995041384, 1.1992913862739982, 990.500033578516], [0, 0, 1, 0], [0, 0, 0, 0], [9E9, 9E9, 9E9, 9E9, 9E9, 9E9]]; 
    CONST robtarget p646:= [[1555.0660823701319, 1.1261153804602912, 990.500033578516], [0, 0, 1, 0], [0, 0, 0, 0], [9E9, 9E9, 9E9, 9E9, 9E9, 9E9]]; 
    CONST robtarget p647:= [[1555.066822637141, 1.06479757311169, 990.500033578516], [0, 0, 1, 0], [0, 0, 0, 0], [9E9, 9E9, 9E9, 9E9, 9E9, 9E9]]; 
    CONST robtarget p648:= [[1555.069301059808, 0.874665866974496, 990.500033578516], [0, 0, 1, 0], [0, 0, 0, 0], [9E9, 9E9, 9E9, 9E9, 9E9, 9E9]]; 
    CONST robtarget p649:= [[1555.0911311528298, 0.48787925113084896, 990.500033578516], [0, 0, 1, 0], [0, 0, 0, 0], [9E9, 9E9, 9E9, 9E9, 9E9, 9E9]]; 
    CONST robtarget p650:= [[1555.0930429252412, 0.3577744118986175, 990.500033578516], [0, 0, 1, 0], [0, 0, 0, 0], [9E9, 9E9, 9E9, 9E9, 9E9, 9E9]]; 
    CONST robtarget p651:= [[1555.0877606383588, 0.21743695272988361, 990.500033578516], [0, 0, 1, 0], [0, 0, 0, 0], [9E9, 9E9, 9E9, 9E9, 9E9, 9E9]]; 
    CONST robtarget p652:= [[1555.0872884714297, -0.08864529448085534, 990.500033578516], [0, 0, 1, 0], [0, 0, 0, 0], [9E9, 9E9, 9E9, 9E9, 9E9, 9E9]]; 
    CONST robtarget p653:= [[1555.0828160440958, -0.6100416532858475, 990.500033578516], [0, 0, 1, 0], [0, 0, 0, 0], [9E9, 9E9, 9E9, 9E9, 9E9, 9E9]]; 
    CONST robtarget p654:= [[1555.0773308275961, -0.7913899103015041, 990.500033578516], [0, 0, 1, 0], [0, 0, 0, 0], [9E9, 9E9, 9E9, 9E9, 9E9, 9E9]]; 
    CONST robtarget p655:= [[1555.0728316406012, -0.9455046979463901, 990.500033578516], [0, 0, 1, 0], [0, 0, 0, 0], [9E9, 9E9, 9E9, 9E9, 9E9, 9E9]]; 
    CONST robtarget p656:= [[1555.0598581832517, -1.1804132901972366, 990.500033578516], [0, 0, 1, 0], [0, 0, 0, 0], [9E9, 9E9, 9E9, 9E9, 9E9, 9E9]]; 
    CONST robtarget p657:= [[1555.0489820880866, -1.502542529245872, 990.500033578516], [0, 0, 1, 0], [0, 0, 0, 0], [9E9, 9E9, 9E9, 9E9, 9E9, 9E9]]; 
    CONST robtarget p658:= [[1555.0465064700047, -1.6146508189591913, 990.500033578516], [0, 0, 1, 0], [0, 0, 0, 0], [9E9, 9E9, 9E9, 9E9, 9E9, 9E9]]; 
    CONST robtarget p659:= [[1555.0362765439793, -1.8477294990573085, 990.500033578516], [0, 0, 1, 0], [0, 0, 0, 0], [9E9, 9E9, 9E9, 9E9, 9E9, 9E9]]; 
    CONST robtarget p660:= [[1555.0251449609746, -2.1717530738447977, 990.500033578516], [0, 0, 1, 0], [0, 0, 0, 0], [9E9, 9E9, 9E9, 9E9, 9E9, 9E9]]; 
    CONST robtarget p661:= [[1555.0223607964317, -2.307616456147315, 990.500033578516], [0, 0, 1, 0], [0, 0, 0, 0], [9E9, 9E9, 9E9, 9E9, 9E9, 9E9]]; 
    CONST robtarget p662:= [[1555.0014153134653, -2.6785253319823283, 990.500033578516], [0, 0, 1, 0], [0, 0, 0, 0], [9E9, 9E9, 9E9, 9E9, 9E9, 9E9]]; 
    CONST robtarget p663:= [[1554.9848536223321, -2.988418571630291, 990.500033578516], [0, 0, 1, 0], [0, 0, 0, 0], [9E9, 9E9, 9E9, 9E9, 9E9, 9E9]]; 
    CONST robtarget p664:= [[1554.9833063740223, -3.256344944474151, 990.500033578516], [0, 0, 1, 0], [0, 0, 0, 0], [9E9, 9E9, 9E9, 9E9, 9E9, 9E9]]; 
    CONST robtarget p665:= [[1554.980005998991, -3.4357029971648956, 990.500033578516], [0, 0, 1, 0], [0, 0, 0, 0], [9E9, 9E9, 9E9, 9E9, 9E9, 9E9]]; 
    CONST robtarget p666:= [[1554.9682364481318, -3.842847412049096, 990.500033578516], [0, 0, 1, 0], [0, 0, 0, 0], [9E9, 9E9, 9E9, 9E9, 9E9, 9E9]]; 
